kploeger/phillipp_vincent_learning_latent_dynamics/programming/ros/catkin_ws/src/.models/src/testset.csv
joint_state_pos_joint1,joint_state_vel_joint1,joint_state_acc_joint1,joint_state_effort_joint1,joint_state_pos_joint2,joint_state_vel_joint2,joint_state_acc_joint2,joint_state_effort_joint2,joint_state_pos_joint3,joint_state_vel_joint3,joint_state_acc_joint3,joint_state_effort_joint3,joint_state_pos_joint4,joint_state_vel_joint4,joint_state_acc_joint4,joint_state_effort_joint4
-2.2169487425583048e-16,-1.1358715845166564e-18,0.0,-5.952003455523328e-17,0.008231926158292375,-2.364808677487616e-16,0.0,-2.4695778474876438,-2.5104585200061366e-11,6.020622241495988e-18,0.0,2.5104818662691917e-09,2.2530368704706416,1.1009025314579934e-13,0.0,-1.7973107590487736
-2.2170969703075074e-16,-7.411387460131603e-18,0.0,7.951101091616594e-18,0.008231926158292375,-2.366750451084852e-16,0.0,-2.4695778474876438,-2.510458480595669e-11,1.970523393266187e-16,0.0,2.5104806821002777e-09,2.2530368704706416,1.1009024936076497e-13,0.0,-1.7973107590487736
-2.217090843777151e-16,3.063265178126533e-19,0.0,5.187971222092122e-17,0.008231926158292375,-2.3644189934771104e-16,0.0,-2.4695778474876438,-2.5104584784560793e-11,1.0697948337141066e-17,0.0,2.5104353180207074e-09,2.2530368704706416,1.1008819169405128e-13,0.0,-1.7973107590487736
-2.216983755343767e-16,5.354421669205075e-18,0.0,-2.1442856246885734e-18,0.008231926158292375,-2.3628608818196567e-16,0.0,-2.4695778474876438,-2.5104585063756387e-11,-1.3959779731949425e-16,0.0,2.510436249792662e-09,2.2530368704706416,1.1008883557550126e-13,0.0,-1.7973107590487734
-2.2168143475283758e-16,8.470390769567353e-18,0.0002715087151990758,-3.7480951684435526e-17,0.008231926158292375,-2.3618735069379797e-16,6.460755240734801e-05,-2.4695778474876438,-2.5104585585521735e-11,-2.608826748468559e-16,0.001608346174718042,2.5104370012713904e-09,2.2530368704706416,1.1008952548472468e-13,0.3674270349291897,-1.7973107590487734
1.1952834554540836e-06,0.0005976417278378825,0.0003907587858464484,-5.929273538697148e-17,0.008232117900063141,9.587088538309047e-05,0.00013015274885948784,-2.4695778474876438,7.227336396574337e-06,0.0036136807505799612,0.002279666629318164,2.510482016616763e-09,2.254512787943311,0.7379587363348447,0.5665947145230791,15.0
3.395787196628284e-06,0.0011002518705871002,0.0004240178349747485,-0.0044225487859300095,0.008232575450959786,0.00022877544832264611,0.0002445996001959628,-2.471073433299665,2.0285991095625873e-05,0.006529327349525768,0.0024156024906668693,-0.018791137392546283,2.2574541762475238,1.470694152106322,0.6836106730443735,15.0
6.434804465560574e-06,0.001519508634466145,0.000383072889765998,-0.008380920533463574,0.008233521462739762,0.00047300588998774087,0.0005131741092811171,-2.4732042670127763,3.8007605461878e-05,0.008860807183126063,0.0021069839770083442,-0.03467523585721137,2.2618505460287435,2.1981848906099626,0.7179370948493604,15.0
1.016591118703079e-05,0.0018655533607351078,0.00031097297906744015,-0.011923521334406188,0.008235294828132412,0.0008866826963255134,0.0011446232645399672,-2.4771515271717597,5.941031318922229e-05,0.010701353863672148,0.0016264094202839367,-0.048104796461832355,2.2676913674069517,2.9204106891040325,0.7096197195072802,15.0
1.4460225893409784e-05,0.0021471573531894974,0.00022350430178600972,-0.015092055762561087,0.008238323862011827,0.0015145169397076737,0.002276166479453285,-2.4838886888846528,8.36649570163446e-05,0.01212732191356115,0.0010710242462575693,-0.05944780063726196,2.2749660728595633,3.637352726305794,0.6723098247808084,15.0
1.9195135922497356e-05,0.0023674550145437864,0.00011677230738160694,-0.01792214665104159,0.008247380260759447,0.004528199373809946,0.0037314268311487127,-2.4942149126991677,0.00010997388337020932,0.013154463176932368,0.0004183827959897725,-0.06900310526942294,2.2836643408286417,4.349133984539252,0.5969859612873472,15.0
2.403745629407807e-05,0.002421160185790356,-2.7528930077332613e-06,-0.020411212286311077,0.008266270947784522,0.009445343512537356,0.005072056426185252,-2.5421370688350478,0.00013630952840158186,0.013167822515686272,-0.0002882051694542212,-0.07676970422167032,2.293491534540486,4.913596855922181,0.48571420272059695,11.928167582975728
2.8708465284872046e-05,0.002335504495396988,-0.00011601474875514383,-0.021755612559306158,0.0082975546526751,0.015641852445288703,0.00590240914309993,-2.6215614370234217,0.00016105442319342629,0.012372447395922219,-0.0009318742989972706,-0.0794700654185804,2.304153510591697,5.330988025605311,0.35739220411021266,8.840022280297344
3.299832875632676e-05,0.0021449317357273563,-0.0002075455672245843,-0.022090224524783143,0.008342300168821362,0.022372758073130508,0.006037288589310817,-2.723894182481867,0.00018306306109679447,0.011004318951684095,-0.001423657909265806,-0.0779676792989474,2.3153814294253374,5.613959416820224,0.23077178328370485,6.004596594561084
3.67567548887011e-05,0.001879213066187171,-0.000273194831508465,-0.02161418790131944,0.008399998065284164,0.028848948231401106,0.005448985781986361,-2.8382814217433188,0.000201580934584026,0.009258936743615769,-0.001746709708241099,-0.07332790086808158,2.3269309284532933,5.774749513977829,0.11420302493241685,3.416075292941983
3.9884046907279255e-05,0.0015636460092890772,-0.00031553399346046873,-0.020505842441045845,0.008468630298009412,0.03431611636262414,0.004187495703383342,-2.9527336430562228,0.00021617155581151566,0.0072953106137448286,-0.0019246808769736701,-0.06645277717648998,2.338581167748247,5.825119647476734,0.009015913353341176,1.0671002615496548
4.2322685229986894e-05,0.0012193191613538194,-0.00033850068279444565,-0.018922331446494925,0.008544852635251487,0.038111168621037354,0.002351462279557518,-3.055330834842207,0.00022665141851827998,0.00523993135338216,-0.0019877147439623924,-0.05809370864985701,2.3501338037951927,5.776318023472952,-0.08520473863234601,-1.0508620654557035
4.4049521925062554e-05,0.0008634183475378302,-0.00034588420123011387,-0.016999771175514627,0.008624251595214166,0.03969947998133906,0.00010605619282760478,-3.13512331989098,0.00023303265097489935,0.003190616228309682,-0.0019635459513501017,-0.048864798618740574,2.36141191746327,5.639056834038838,-0.1689829173943469,-2.9473849842979174
4.5068646840493944e-05,0.0005095624577156958,-0.00034141470184074704,-0.014853832817796852,0.00870164383149789,0.0386961181418618,-0.0022240979032186955,-3.182767678284341,0.0002354730501209832,0.001220199573041928,-0.001879244469458374,-0.039256346239044664,2.372258913678971,5.423498107850526,-0.2428076166886175,-4.632952346032882
4.5404973543010735e-05,0.00016816335125839635,-0.00032881251258655805,-0.01258066657206687,0.008771391845890568,0.034874007196339186,-0.004121640891411942,-3.190934921577249,0.00023423319170268436,-0.000619929209149415,-0.001761873213412256,-0.029648302877293437,2.3825374142743434,5.139250297686229,-0.307118858241044,-6.118709605070004
4.509761991829036e-05,-0.0001536768123601897,-0.0003111529230808534,-0.010258138167452205,0.008828179966052448,0.02839406008094067,-0.00518253882312654,-3.1545276617123004,0.00022963017353841,-0.0023015090821371853,-0.0016317685366326676,-0.020323673124521113,2.392128284813107,4.795435269381778,-0.3624228416278519,-7.416467608308443
4.4182508544130775e-05,-0.0004575556870797902,-0.00028997716588635155,-0.007943786297167443,0.008873534995440996,0.02267751469427389,-0.0055782015134561835,-3.074364891029879,0.00022187560269575296,-0.0038772854213285184,-0.0014936415990802992,-0.011455471943141626,2.400931647160509,4.401681173701198,-0.4094608719183488,-8.538646185530673
4.270421852151668e-05,-0.0007391450113070464,-0.00026537095976714826,-0.005633611899283561,0.008908719325802717,0.017592165180860948,-0.0059895436508843715,-3.0022232190464653,0.00021123364886591728,-0.00532097691491784,-0.0013394332694752762,-0.002801133162950529,2.408862958133911,3.9656554867009954,-0.4489239789689363,-9.503352391927242
4.071504992128455e-05,-0.0009945843001160652,-0.00023671590255455087,-0.003366828625125112,0.008933512185352242,0.012396429774762272,-0.006911725239787849,-2.936498275453766,0.00019802471521435417,-0.006604466825781559,-0.001160498543525804,0.005481519688012023,2.4158509981269995,3.494019996544255,-0.480086723387781,-10.326073000657011
3.827851391324648e-05,-0.0012182680040190373,-0.0002032798233274596,-0.001180919883450305,0.008943053659318696,0.004770736983227464,-0.008168828492844084,-2.866000102227097,0.00018267174479613893,-0.007676485209107618,-0.0009549585437764966,0.013219862607461587,2.421835357630918,2.992179751959252,-0.49990049961050365,-11.018794592340234
3.545520549122985e-05,-0.0014116542110083126,-0.00016607693952569642,0.0008721732454836633,0.00893336283074659,-0.004845414286053447,-0.009241864303021244,-2.754477152544019,0.00016555309785755456,-0.008559323469292187,-0.000734292266278659,0.020115251565902208,2.426767590705631,2.4661165373564335,-0.5064801406670217,-11.590689052997229
3.234252998493521e-05,-0.0015563377531473228,-0.0001302706622751936,0.0027905383788409555,0.008903388374674921,-0.01498722803583448,-0.009906733188083721,-2.6073276349331898,0.00014723172201953812,-0.009160687919008214,-0.0005310934170966331,0.02624130756069025,2.430673320877467,1.9528650859180634,-0.5048418644333357,-12.052391682623211
2.9041719388866933e-05,-0.0016504052980341368,-0.00010276701683481157,0.004425858275060795,0.008853952186066116,-0.024718094304403058,-0.010330909241609797,-2.446208091864907,0.00012826568008138237,-0.009483020969077873,-0.0003836517935266572,0.031080267393094108,2.4336135928775544,1.4701360000436454,-0.5049222094970564,-12.503657626719008
2.5568280600279747e-05,-0.0017367193942935929,-8.594878299235332e-05,0.0057444932084611145,0.008783262163814348,-0.03534501112588436,-0.010665427986970748,-2.285414241253819,0.0001087099954161451,-0.009777842332618632,-0.0003023498035972707,0.034588536837271935,2.4355479056791007,0.9671564007731076,-0.512066435805741,-13.000404572535816
2.193730622067843e-05,-0.001815487189800658,-7.650485104664562e-05,0.007043379639995833,0.008690375742060764,-0.046443210876791714,-0.010831557770382059,-2.104803482256061,8.861618130807441e-05,-0.010046907054035346,-0.0002654697435903845,0.03801821212146976,2.4364439035980507,0.44799895947490637,-0.5236536386466354,-13.417775994064472
1.816223069624051e-05,-0.0018875377622189595,-7.036441233717846e-05,0.008320949084511545,0.008575188051660621,-0.05759384520007137,-0.01068385733518399,-1.9104645594663232,6.802512489285398e-05,-0.010295528207610212,-0.00024825634950419694,0.041372917139370184,2.4362760585993213,-0.08392249936477875,-0.5350830327543984,-13.769588082095222
1.4253952242976917e-05,-0.001954139226631796,-6.58840745551175e-05,0.009580318196275988,0.008438399362619692,-0.06839434452046465,-0.010163836842712132,-1.708648737497069,4.696251203439796e-05,-0.01053130642922801,-0.00024069903500228626,0.044675128548749866,2.4350243753417935,-0.6258416287639981,-0.5444902807774147,-14.069273257496972
1.0220241199846597e-05,-0.00201685552156516,-6.292959671238608e-05,0.010828184137828418,0.008281466979360086,-0.0784661916298032,-0.009279794613978001,-1.5056046409789727,2.5436125874176135e-05,-0.010763193080110913,-0.00024167512951035666,0.04796028094271129,2.432673114796732,-1.1756302725308627,-0.5519819893721714,-14.329950918685737
6.0653684335474515e-06,-0.0020774363831495726,-6.132959944191141e-05,0.012073940410954193,0.008106547284824758,-0.08745984726766379,-0.008044848122087452,-1.3074472193610345,3.434483893653702e-06,-0.011000820990261216,-0.0002498914547668582,0.05127235281315225,2.429209543489768,-1.7317856534819218,-0.5576522258812431,-14.564387065153305
1.7898449851961138e-06,-0.002137761724175669,-6.041287934214351e-05,0.013328980995301505,0.007916431182637684,-0.09505805109353643,-0.006455812050950534,-1.1200664764324648,-1.907391372805842e-05,-0.011254198810856061,-0.0002612636202709642,0.054660656561933356,2.4246226404419855,-2.2934515238912816,-0.560874452956578,-14.78575591831298
-2.609306062934093e-06,-0.0021995755240651034,-5.947250341238174e-05,0.014606363072207341,0.007714500760883305,-0.10096521087718952,-0.00451448274820325,-0.9490585883883087,-4.213842424360653e-05,-0.011532255257774054,-0.000271584623932156,0.05817838542708213,2.418902482470469,-2.860078985758341,-0.5609053629562075,-15.0
-7.1250702814331894e-06,-0.0022578821092495483,-5.849437121300876e-05,0.015918889881010322,0.0075052791593965395,-0.10461080074338303,-0.0022611324628782764,-0.7998720651071847,-6.574957901881698e-05,-0.011805577387605229,-0.00028062693970336283,0.06187511871324233,2.412059586714382,-3.421447878043383,-0.5579825583601925,-15.0
-1.1754699952569893e-05,-0.002314814835568352,-5.8090044129913056e-05,0.01723018882101344,0.007293671407881134,-0.10580387575770261,0.00023086959608115132,-0.6824217366682295,-8.992028772710942e-05,-0.012085354354146219,-0.0002916948016657992,0.06560284483988761,2.4041045603858104,-3.9775131642859143,-0.5533437110901842,-15.0
-1.6498724880560064e-05,-0.0023720124639950856,-5.8733740835553976e-05,0.01855464383948153,0.007084909443531468,-0.10438098217483296,0.002894203421188943,-0.60104328599878,-0.00011467933573247794,-0.012379524002684262,-0.00030728206851853967,0.06941880054342299,2.39504802011455,-4.528270135630086,-0.5481630159058188,-15.0
-2.1360113448439823e-05,-0.0024306942839398796,-6.037821902788289e-05,0.01990383222406968,0.006884500445407658,-0.10020449906190523,0.005672907185249182,-0.5597581004369441,-0.00014006610690892913,-0.012693385588225602,-0.0003268046474324835,0.07336555358667168,2.3849005105161942,-5.073754799177897,-0.5429626969171473,-15.0
-2.6343567275582152e-05,-0.002491726913571164,-6.252928835746136e-05,0.021286882677223375,0.006698178660112776,-0.09316089264744087,0.008429110306260819,-0.5622826476937228,-0.00016612633438802896,-0.01303011373954991,-0.00034626909112538736,0.0774735386320145,2.373672422906733,-5.614043804730406,-0.5378870256676871,-15.0
-3.145493385702433e-05,-0.0025556832907210883,-6.426668769648775e-05,0.022710801850118072,0.006531860830073716,-0.08315891501953017,0.010809065965350098,-0.6120402083221594,-0.00019290871197581374,-0.013391188793892393,-0.0003574057244594064,0.08176320213654459,2.361373914918927,-6.149253993903109,-0.533042681531211,-15.0
-3.6700722683997624e-05,-0.0026228944134866466,-6.467706085516397e-05,0.024180769806476536,0.006391605279250397,-0.07012777541165949,0.012397513020744575,-0.7121745237291672,-0.00022046222429617803,-0.013776756160182143,-0.00035221313579903313,0.08624681516702563,2.348014831621204,-6.679541648861364,-0.5285302744773452,-15.0
-4.208022882001379e-05,-0.0026897530680080823,-6.401843822513987e-05,0.025700405431211396,0.006279921385503318,-0.05584194687353967,0.013284258655833887,-0.865564952600268,-0.00024875470233838755,-0.014146239021104744,-0.00033525608376870283,0.09093000323053878,2.333603754452804,-7.2055385842001085,-0.5243232036508676,-15.0
-4.7579845293108654e-05,-0.0027498082365474334,-6.40231026795726e-05,0.027244317240082458,0.006192642733254004,-0.04363932612465667,0.014287817074262051,-1.0463472125478503,-0.000277619138269584,-0.014432217965598225,-0.0003261020034394978,0.09560666533936646,2.318147664987541,-7.728044732631289,-0.5202535180455534,-15.0
-5.320186179237498e-05,-0.0028110082496331634,-6.622085020896624e-05,0.028764626714436446,0.006132177252389994,-0.03023274043200497,0.016237867846044737,-1.203202928106395,-0.0003070675009861987,-0.014724181358307362,-0.0003407631169795866,0.0999230036549536,2.3016548929672824,-8.246386010129338,-0.5161959574474726,-15.0
-5.8959215903596334e-05,-0.0028786770556106776,-7.039271066025705e-05,0.03031743010592683,0.006106038547066445,-0.013069352661774333,0.019213501734684668,-1.386162069236963,-0.00033722323782384,-0.015077868418820634,-0.0003757666779777343,0.10432765689017813,2.2841341714707797,-8.760360748251342,-0.5122126834534857,-15.0
-6.486323705739751e-05,-0.002952010576900587,-7.519608724182729e-05,0.03194258257001652,0.0061216918165213265,0.007826634727440477,0.02273448559294813,-1.6357712741932968,-0.0003681857879385609,-0.015481275057360449,-0.0004161058004528706,0.10911166587648455,2.265593507859945,-9.270331805417184,-0.5084726702008506,-15.0
-7.092361867138132e-05,-0.00303019080699191,-7.959721003236915e-05,0.033636721449795175,0.006186530987914126,0.0324195856963999,0.026382171268166346,-1.9539070658679745,-0.0004000335644530044,-0.01592388825722175,-0.00045103591401868346,0.11422495408067576,2.2460401160779293,-9.776695891007828,-0.5051076491801112,-15.0
-7.71484290014947e-05,-0.0031124051650566905,-8.325168564413208e-05,0.03539605938321075,0.006307859451377657,0.06066423173176563,0.030001860021844688,-2.3422530818202305,-0.0004328264931177009,-0.01639646433234825,-0.000477676973536156,0.11962279773140383,2.2254803525207674,-10.279881778581071,-0.5021812297682811,-15.0
-8.354414945697734e-05,-0.0031978602277413152,-8.613262500036141e-05,0.03721652195572461,0.006492874165915893,0.0925073572691179,0.033566261360317366,-2.8023213113897896,-0.000466608179526498,-0.016890843204398574,-0.0004965095805049575,0.1252649709734901,2.2039196552941265,-10.780348613320426,-0.49972720623115663,-15.0
-9.011573136204153e-05,-0.0032857909525320934,-8.826868665777281e-05,0.039093851485610065,0.006748652888623784,0.12788936135394557,0.03706960458509829,-3.3354726088115143,-0.0005014077608706619,-0.0173997906720819,-0.0005084059453170885,0.1311150339746524,2.181362486636408,-11.278584328859088,-0.4977737176344359,-15.0
-9.6866663880607e-05,-0.0033754662592827382,-8.969307596212272e-05,0.0410236829401192,0.0070821442654075625,0.16674568839188927,0.040507475713662824,-3.942936286896259,-0.000537241485329506,-0.017916862229422084,-0.0005141066993445374,0.1371397294474804,2.1578122782763174,-11.775104180045345,-0.49634748675048357,-15.0
-0.00010379904716204086,-0.003466191640716928,-9.044072274515627e-05,0.04300159659113055,0.007500160507913582,0.20900812125300985,0.04387667605580184,-4.625828605500635,-0.0005741140518110078,-0.018436283240750872,-0.0005142357973802469,0.14330845968006245,2.133271379498033,-12.270449389142172,-0.4954739193530484,-15.0
-0.00011091366579410411,-0.0035573093160316234,-9.054592843360412e-05,0.0450231509174098,0.008009372367629707,0.2546059298580625,0.047175073059635114,-5.385169971169188,-0.0006120197343230822,-0.01895284125603721,-0.0005093114179179261,0.14959282138485025,2.107741007711889,-12.765185893072024,-0.49517718447422787,-15.0
-0.00011821005842217214,-0.0036481963140340165,-9.004035998667437e-05,0.047083898371014524,0.008616306102897365,0.30346686763382885,0.05040144227317972,-6.221900658159804,-0.0006509433083172606,-0.019461786997089236,-0.0004997535378049624,0.155966179712476,2.081221201375418,-13.259903168235645,-0.4954802632681936,-15.0
-0.00012568657995342747,-0.0037382607656276648,-8.895128707106818e-05,0.049179385882693015,0.009327342116498842,0.3555180068007384,0.0535552985040606,-7.136894845376595,-0.0006908607905184007,-0.019958741100570034,-0.00048588867573477745,0.16240326581715153,2.0537107751821044,-13.755213096656789,-0.4964049520055598,-15.0
-0.00013334045314064192,-0.0038269365936072284,-8.729997187204301e-05,0.051305141350091225,0.010148714918978612,0.41068640123988415,0.05663671336293488,-8.130972736960775,-0.0007317399987129543,-0.020439604097276794,-0.00046795214422535973,0.1688797845547001,2.025207277537889,-14.251748822107682,-0.4979718018621888,-15.0
-0.00014116780655168922,-0.003913676705523653,-8.510012900374026e-05,0.053456646783396386,0.011086514044041464,0.46889956253142623,0.059646115302845915,-9.20491049429188,-0.0007735409334367848,-0.020900467361915254,-0.00044608801607681076,0.175372020357685,1.9957069504845668,-14.750163526661094,-0.5001999743694308,-15.0
-0.00014916369598883352,-0.0039979447185721564,-8.235637687954841e-05,0.055629298248963545,0.01214668550498152,0.5300857304700278,0.06258406696509566,-10.359447651183771,-0.0008162159792394556,-0.021337522901335407,-0.0004203468937559775,0.18185643015326075,1.9652046924129878,-15.251129035789539,-0.5031069864100335,-15.0
-0.00015732210632950284,-0.00407920517033466,-7.906260214011421e-05,0.05781835222774886,0.013335033332376858,0.5941739136976695,0.0654510130493387,-11.595291608544915,-0.0008597099189895515,-0.021746969875047973,-0.0003906814646381148,0.188309212430608,1.933694024148153,-15.755334132417332,-0.5067083121627736,-15.0
-0.0001656359305143876,-0.00415691209244238,-7.520015563090626e-05,0.060018857458212525,0.014657220669846099,0.6610936687346202,0.06824698996564676,-12.913118705178128,-0.0009039597503280571,-0.022124915669252794,-0.00035693972849868555,0.1947058412741936,1.9011670592969216,-16.263482425615724,-0.5110168010322029,-15.0
-0.0001740969219996942,-0.004230495742653304,-7.073579216781414e-05,0.06222557074998478,0.016118769822323183,0.7307745762385429,0.07097128610948472,-14.31357123197313,-0.0009488942886908088,-0.02246726918137582,-0.00031885569430678724,0.20102055337908378,1.8676144801451513,-16.77628957588521,-0.5160418598757008,-15.0
-0.00018269561640252662,-0.00429934720141621,-6.561925707894e-05,0.06443285459850429,0.01772506054489426,0.8031453612855376,0.07362203862327182,-15.797249590275133,-0.000994433536133804,-0.02276962372149764,-0.00027603726115352223,0.20722577477596177,1.8330255208978523,-17.294479623649455,-0.5217883341967511,-15.0
-0.0001914212172799469,-0.004362800438710138,-5.97804104816883e-05,0.06663455369039029,0.01948132572337077,0.8781325892382559,0.0761957488561874,-17.36469858275139,-0.0010404877893450688,-0.023027126605632317,-0.0002279509254966578,0.21329147222084807,1.7973879607027785,-17.81878009753693,-0.5282550057650592,-15.0
-0.00020026143996587997,-0.004420111342966529,-5.31257659020074e-05,0.0688238465269259,0.021392643422595427,0.955658849612329,0.07868669429083264,-19.01638655558508,-0.0010869564535689587,-0.023234332111944977,-0.00017390290009132794,0.2191844119626684,1.7606881297220078,-18.349915490385374,-0.5354326026504328,-15.0
-0.00020920230611337466,-0.004470433073747342,-4.55343041299767e-05,0.07099306739398539,0.023463924055416637,1.035640316410605,0.08108620937154637,-20.75267577096352,-0.0011337265215887946,-0.02338503400991789,-0.00011301620119850628,0.22486730591664034,1.7229109325639498,-18.88859857902905,-0.5433011912343542,-15.0
-0.00021822788001750793,-0.004512786952066638,-3.669927640447424e-05,0.07313349273893996,0.025699891142791222,1.1179835436872931,0.0841009415963635,-22.573781962784068,-0.0011806706683537653,-0.023472073382485366,-4.115959284568989e-05,0.23029782220848347,1.6840398947171413,-19.43551892340425,-0.5564851674676472,-15.0
-0.0002273199358919563,-0.004546027937224181,-2.5666791226399213e-05,0.07523508466793688,0.02810505377997056,1.2025813185896705,0.0905999493684182,-24.479720498146705,-0.0012276449023405113,-0.023487116993372942,5.627915687727442e-05,0.23542743374781908,1.644057239306547,-19.991327705297223,-0.5936486554075664,-15.0
-0.00023645754301365076,-0.004568803560847229,-1.0284253798416906e-05,0.07728618273892059,0.03068366847960452,1.2893073498169791,0.10350323248299231,-26.47023591283628,-0.0012744857045307789,-0.023420401095133846,0.00020266916943006627,0.2402000752009155,1.6029440036046618,-20.55661785094254,-0.674001387248822,-15.0
-0.00024561655302986294,-0.004579505008106085,1.2848385616671607e-05,0.07927313352869536,0.03343968751288159,1.3780095166385338,0.12004467464109991,-28.54471079113599,-0.0013210065754848455,-0.023260435477033308,0.00041492075150594693,0.24455057592875068,1.5606802073662305,-21.131898119215652,-0.7804765529708888,-15.0
-0.00026388218683069534,-0.004556608025807683,4.566197517319242e-05,0.08298725627806534,0.03949779277327929,1.560551287846386,0.13227708697181817,-32.94052719456289,-0.0014122020430931343,-0.022604070844325155,0.0006850257663474062,0.25166770493952284,1.472617424087408,-22.313832113881148,-0.8626738166466303,-15.0
-0.0002729180468600787,-0.0045179300146916766,8.606631276364537e-05,0.0846726935467737,0.04280553155324892,1.6538693899848147,0.13373918766732096,-35.2576071496796,-0.0014563475503218655,-0.02207275361436565,0.0009788924454473963,0.25424055853093713,1.426775964686243,-22.92072970058241,-0.8784884859862814,-15.0
-0.0002905704107608333,-0.0043693401587766205,0.00013985002165518802,0.08756423862988127,0.04998722291324561,1.8427549750786771,0.12225997879741113,-40.11187446272153,-0.0015400862882251375,-0.020491937561207846,0.0013266300095514019,0.25679739826242154,1.3313701332933985,-24.16493586737968,-0.8111124215535277,-15.0
-0.00029907166852195766,-0.00425062888056218,0.0002376408738869577,0.0886994632636305,0.05386178681360438,1.9372819501793863,0.09961603973621402,-42.637491500153786,-0.0015788576953496283,-0.01938570356224535,0.001938491453317457,0.25646831662857206,1.2817691971327647,-24.800468080316907,-0.668381499770673,-15.0
-0.00030726164053527816,-0.004094986006660261,0.00041351089394451473,0.08956873586830189,0.05792367062566444,2.03094190603003,0.06987958370964653,-45.21776529677213,-0.0016149042782078163,-0.018023291429094035,0.003067103156750544,0.2548142873461979,1.230883535463164,-25.4428308348004,-0.47623373165731664,-15.0
-0.000314458562840576,-0.0035984611526489133,0.0006540527751457339,0.09011723015368074,0.0621051192494733,2.090724311904431,0.035858374388344494,-47.8412297781498,-0.0016436795876938544,-0.01438765474301902,0.004759005465005354,0.25160688496625755,1.1791932474551698,-25.845144003997113,-0.2583471597855489,-11.489979723904106
-0.00031997693897578203,-0.0027591880676030127,0.0008918729708606916,0.08808094063664518,0.0663232219834637,2.1090513669951965,-0.0008803661452376765,-49.99240045340844,-0.0016608757013329741,-0.008598056819559862,0.0069916620251798105,0.2363062324844687,1.1272388212712647,-25.9772130919525,-0.03305394051555233,-7.899622480370127
-0.00032329596917184453,-0.0016595150980312503,0.0010595271315362764,0.083309704268356,0.0704977743590387,2.0872761877875,-0.03766630006552929,-51.53273709996707,-0.0016635197886318471,-0.0013220436494364538,0.009887799532393918,0.2090778542310991,1.0754945924117896,-25.87211442973761,0.17800693018952707,-5.106603028509973
-0.0003241963303080217,-0.0004501805680885875,0.0011383710981564526,0.07627579952055646,0.07455448368880496,2.0283546648831305,-0.07151680635608115,-52.458475124524114,-0.0016455320694759895,0.008993859577928849,0.013335824753992857,0.1729621971103707,1.024362397780701,-25.566097315544237,0.35737749530121476,-3.0642721005915305
-0.00032277812319282255,0.0007091035575995788,0.0011558553169148866,0.0679905300382205,0.07842786647448549,1.9366913928402634,-0.10053772247241721,-52.79166507988846,-0.001594890789958597,0.02532063975869618,0.01654178542177865,0.11958390905794877,0.9741668038364483,-25.097796972126403,0.49801742531775695,-1.7017138914357375
-0.00031905915403728126,0.0018594845777706375,0.0011469424113965138,0.05959189973534331,0.08206407960691876,1.8181065662166376,-0.12365043116478691,-52.57873083494961,-0.0015048026453032325,0.04504407232768235,0.01840757776096075,0.03288588020237493,0.9251497034129823,-24.508550211732967,0.5983635466199111,-0.9417441028262914
-0.0003130391350116513,0.003010009512814974,0.0011243224143933995,0.05079543876308641,0.08542252416119729,1.6792222771392658,-0.1402373629896546,-51.890822375325186,-0.0013735116423939063,0.06564550145466308,0.01828383825608012,-0.07474009710808349,0.8774702152722474,-23.839744070367427,0.658777913848926,-0.6888281881529323
-0.00030475191031061207,0.00414361235051961,0.001080519572163773,0.041537760412587464,0.0884769586436048,1.527217241203756,-0.15017951929262796,-50.815091405448214,-0.0012039597141526041,0.08477596412065111,0.016180086451680467,-0.19087634303392997,0.8312049437369409,-23.132635767653273,0.6815370308909703,-0.8615135253070818
-0.000294300789690923,0.005225560309844542,0.0010049065169553547,0.03194509560851537,0.09121521608478451,1.369128720589853,-0.153893686864926,-49.45134621113782,-0.001003023426853725,0.10046814364943962,0.012502528485268893,-0.30348384918801197,0.7863544997496204,-22.425221993660248,0.671071238089251,-1.3643124551257273
-0.0002818743818701916,0.006213203910365691,0.0008935466508269872,0.02228123576923357,0.09363756114961166,1.2111725324135718,-0.152279232414824,-47.901495634283094,-0.0007803569359567025,0.1113332454485112,0.007819700760796591,-0.40203837556183264,0.7428560276772856,-21.749236036167353,0.6337451927769049,-2.0939772939568577
-0.00026774385442282543,0.007065263723683083,0.0007502798790230145,0.012882449001483644,0.09575419011284195,1.0583144816151389,-0.14658150934045266,-46.25885633108714,-0.0005470341392899959,0.11666139833335328,0.0027553031702250708,-0.4786305336468988,0.7005989055793292,-21.128561048978185,0.5772031891335736,-2.9543330278742346
-0.0002522446907075681,0.007749581857628661,0.0005847784348676443,0.004091924818811175,0.09758223796826634,0.9140239277121965,-0.13821105794202992,-44.600974258079624,-0.00031416422023677404,0.11643495952661094,-0.002077215039627836,-0.5286035777377527,0.6594419447149126,-20.578480432208337,0.5095003198916892,-3.860765209550344
-0.0002357472641900917,0.008248713258738213,0.0004093165682514492,-0.003798134861922077,0.09914249869937987,0.7801303655567614,-0.12850893338922653,-42.98503030616289,-9.161528466109614e-05,0.11127446778783895,-0.006095772123299335,-0.5507583756093657,0.6192314332867082,-20.105255714102224,0.43806344029503386,-4.738090242843157
-0.00021862363916045317,0.008561812514819259,0.00023543430321220672,-0.010591539973154068,0.10045654274166392,0.6570220211420275,-0.11842049090068435,-41.444705093165446,0.00011290565624362756,0.10226047045236185,-0.008784171722202992,-0.5472108104730664,0.5798163860953914,-19.70752359565838,0.368500676324917,-5.532109553673443
-0.00020121723816891317,0.008703200495770001,7.424255829923017e-05,-0.016207959771617472,0.10154457841809236,0.5440178382142219,-0.10843110173949203,-39.99229313962959,0.0002943151246880678,0.0907047342222201,-0.009882422989381634,-0.5225929178861537,0.541059355570436,-19.378515262477706,0.3046655119993318,-6.211574890406231
-0.0001838560442791061,0.008680596944903534,-5.9115531810689445e-05,-0.020678955836609045,0.10242368222108558,0.4395519014966065,-0.09934231202689048,-38.623641098640974,0.0004541326710778626,0.0799087731948974,-0.009598757508502816,-0.4829551835798921,0.5028451874424336,-19.10708406400126,0.2517247358579784,-6.755238535362169
-0.00016683328662127063,0.008511378828917745,-0.00014622223632232336,-0.0239929697584678,0.10311945968481728,0.3478887318658536,-0.09306703132962041,-37.32038318877483,0.0005953172510461842,0.07059228998416082,-0.008488620702680333,-0.44495713308229484,0.46504508705923564,-18.90005019159897,0.21858472135270013,-7.104724732984472
-0.00015028314352161676,0.008275071549826932,-0.00017758620992413578,-0.026212994478194494,0.10364763557568829,0.264087945435505,-0.09167688746934483,-36.15416888343299,0.000720750838374857,0.06271679366433638,-0.007080802735632295,-0.4124931750254043,0.4275928268822443,-18.726130088495655,0.21346608534834566,-7.149695705342538
-0.0001341329974634135,0.00807507302910162,-0.00016262252580986555,-0.027868872144466067,0.10399706337434611,0.17471389932890888,-0.0955394335005328,-35.05560985423901,0.0008337398418191517,0.05649450172214737,-0.005682515440894046,-0.38565905215916807,0.39054381021507495,-18.52450833358469,0.23691524585131774,-6.918512635501447
-0.00011828397344440525,0.007924512009504132,-0.00012261210735545636,-0.029698911711042712,0.10415224604315772,0.07759133440580292,-0.10325934428757945,-33.81982750223753,0.0009370588202143231,0.05165948919758569,-0.0044241931882941996,-0.3658464927926372,0.3539833729789296,-18.280218618072652,0.28252722478742953,-6.524660070898452
-0.00010262955323280257,0.007827210105801343,-7.633520883193381e-05,-0.03181478937765343,0.10409401605322272,-0.029114994967499863,-0.11321780299963584,-32.409543829034405,0.0010329945678188939,0.04796787380228537,-0.0033112191769769997,-0.3520033280093727,0.3180239851628259,-17.979693908051885,0.3434169093906565,-5.969813432971559
-8.706917267808424e-05,0.007780190277359167,-3.5110195316523894e-05,-0.03426456009406888,0.1038001620911121,-0.14692698105530727,-0.12432993573786329,-30.7914798914543,0.0011233903567020725,0.045197894441589316,-0.002281118946237535,-0.3431388257932959,0.28280299505717493,-17.610495052825474,0.4148231813068435,-5.251163618265085
-7.151686690703972e-05,0.007776152885522259,-6.01278078379364e-06,-0.03704749740591853,0.10324585884219267,-0.277151624459715,-0.13567061470655453,-28.936143911504054,0.0012096945954788664,0.043152119388396894,-0.0013755204065289788,-0.33832850787817464,0.24848170222488514,-17.160646416144896,0.49213031189222356,-4.358929759111906
-5.592482369797841e-05,0.007796021604530657,5.781933525427808e-06,-0.04012969681721454,0.10240668176551455,-0.4195885383390571,-0.14618829744245784,-26.816483285762093,0.0012954754928075664,0.042890448664349975,-0.0008274539888316508,-0.336730056489855,0.21522907342333206,-16.62631440077654,0.5696792850163384,-3.3479575183124055
-4.028450763728164e-05,0.007820158030348384,-2.688822366597385e-06,-0.04338718649216227,0.10126156696562678,-0.5725573999438832,-0.15486744357106608,-24.428176454568487,0.0013814154619825254,0.042969984587479464,-0.0008155234644086559,-0.34399979260251173,0.18320552007627738,-16.01177667352733,0.6417541780949145,-2.2760334257665296
-2.4636261046547333e-05,0.007824123295367153,-3.1413693480883496e-05,-0.04668420468498527,0.09979459696151641,-0.7334850020551887,-0.16094258157850844,-21.790109090529832,0.0014655510632098825,0.04206780061367853,-0.0011880032636430483,-0.3529914691356423,0.15255256653546242,-15.326476770407474,0.7037703518160816,-1.186464253200631
-9.0665413474705e-06,0.007784859849538416,-7.741496341078392e-05,-0.04984161085821766,0.0979961743761119,-0.8992112927022585,-0.16393817809653222,-18.936104057627084,0.0015460564853669112,0.04025271107851439,-0.0016083547926657484,-0.35689410938937066,0.12338526671666296,-14.58364990939973,0.7525166900598226,-0.11925907484547338
6.308592169847292e-06,0.007687566758658896,-0.0001358124487346496,-0.05268071067727514,0.09586329477402478,-1.06643980104356,-0.1636015124784792,-15.910682922299712,0.0016228715969136204,0.0384075557733546,-0.0018997099069463404,-0.3558692039292595,0.09578933375987897,-13.797966478391997,0.785813317187233,0.8995824472824818
2.135551374413015e-05,0.007523460787141429,-0.00020111521612662265,-0.0550746857446103,0.09339992476459881,-1.231685004712985,-0.15988476465361456,-12.76239141655403,0.0016957349797439025,0.03643169141514106,-0.00210224405465707,-0.3543249385581274,0.06981731680367254,-12.98600847810322,0.8024687839204159,1.8368820424785124
3.593137869540069e-05,0.0072879324756352695,-0.0002677390682693892,-0.0569353282587996,0.09061731483438987,-1.3913049651044707,-0.15302634793088066,-9.544702358684898,0.0017642517280124228,0.03425837413426015,-0.002292719310692297,-0.351731955050101,0.04548459028409812,-12.16636325978721,0.8028442033972594,2.654081536595694
4.9893629217655143e-05,0.006981125261127225,-0.00033024249054494246,-0.05820180306854857,0.08753374241915238,-1.5417862076187432,-0.14358742340384933,-6.3156199737499605,0.0018279610985824084,0.03185468528499282,-0.0024841532450393666,-0.3477170434725319,0.022768358766942727,-11.358115758577695,0.7891906102670907,3.3229519489287274
6.311859548090844e-05,0.006612483131626647,-0.00038415063496642426,-0.058846602671386375,0.08417154674176217,-1.6810978386951054,-0.13230391445258471,-3.133329611464589,0.001886452343360854,0.029245622389222785,-0.0026542950940603334,-0.3420695362832161,0.0016228698122560713,-10.572744477343328,0.7648974064626515,3.8873722578316556
7.550742657825069e-05,0.006194415548671125,-0.00042686265188597323,-0.05891110101756962,0.08055560844159515,-1.8079691500835093,-0.11985265374382648,-0.03499644210204167,0.0019394057813503203,0.02647671899473323,-0.0027845630587689622,-0.3348733462821962,-0.018013308711893033,-9.818089262074551,0.7331764330610122,4.3640003263676785
8.698753958772956e-05,0.005740056504739434,-0.00045773176874828536,-0.05846239415636956,0.07671224639135879,-1.9216810251181826,-0.10672421059465032,2.952854718774063,0.0019866074504456643,0.023600834547672037,-0.0028681085298695036,-0.32632417310870954,-0.03621208612698939,-9.099388707548178,0.6963081280842429,4.764906697866847
9.751115306374462e-05,0.00526180673800753,-0.00047740341247767696,-0.05757790345075858,0.07266849463437679,-2.0218758784910014,-0.0932430672044463,5.811541459365046,0.002027946573213271,0.020669561383803523,-0.0029057848649479464,-0.3166649177829145,-0.053052586924770655,-8.420250398890632,0.6557277134329436,5.097043328250097
0.00010705197175311876,0.004770409344687071,-0.00048702179917346593,-0.056334877778786194,0.06845175548716162,-2.1083695736075843,-0.07966128123004301,8.527589787051994,0.0020634018656083214,0.017727646197525117,-0.002901458243001258,-0.30614246424033226,-0.06861991014244768,-7.783661608838512,0.6125553000768145,5.360657715118817
0.0001156011962161643,0.004274612231522766,-0.00048773349612620497,-0.0548032597634056,0.06408972142562279,-2.181017030769417,-0.06623771113634502,11.09001695796524,0.0020930233694312905,0.014810751911484643,-0.002859101405676202,-0.294978417548475,-0.08300537167192144,-7.192730764736881,0.5680616011997013,5.55055048328402
0.00012316699745601605,0.003782900619925873,-0.0004806562608469099,-0.05304252486386109,0.059609480433950604,-2.240120495836091,-0.053232061081599946,13.488339033854395,0.0021169352810088823,0.011955955788795863,-0.002782702692948273,-0.28335609650054117,-0.09630164581530398,-6.648137071691271,0.5236327532316687,5.686371239158971
0.00012977357788601464,0.003303290214999292,-0.0004670709831597088,-0.051113703830717325,0.05503657471697536,-2.286452858487621,-0.04083951211581671,15.71896330735624,0.002135336077492391,0.009200398241754278,-0.002677518658168488,-0.2714733070448885,-0.10859726825077586,-6.147811217735936,0.4803670710692187,5.793788111723338
0.0001354562785212757,0.002841350317630533,-0.0004484086322083518,-0.04907774708219835,0.05039515298944054,-2.3207108637674074,-0.029167271999571476,17.785820462221757,0.0021484731315717237,0.006568527039666416,-0.0025500233343968798,-0.2595355989580214,-0.11997753247815982,-5.690132113691977,0.438908948991533,5.870623369635069
0.00014025851579316053,0.0024011186359424092,-0.0004260298588865312,-0.046980707927695015,0.04570789996446351,-2.343626512488516,-0.018271278434405236,19.692117059678917,0.002156628199225948,0.004077533827112292,-0.002406551807984096,-0.24768994835550584,-0.13052400433391403,-5.273235927877105,0.3996446602556438,5.921155907306611
0.0001442295524708523,0.0019855183388458922,-0.0004011124216917887,-0.044859533610246,0.04099589718589255,-2.3560013892854834,-0.008179936961963952,21.442027697988678,0.002160107548779323,0.0017396747766873374,-0.0022526226983449324,-0.23605048905814108,-0.14031354375399496,-4.894769710040458,0.3628281119554404,5.952389208047175
0.00014742291546859562,0.001596681498871668,-0.0003746980251451054,-0.042744538866111965,0.03627840790560781,-2.3587446401423677,0.0011181111812770261,23.041251683514545,0.0021592356634439003,-0.0004359426677111637,-0.0020932529304888235,-0.22470912876135224,-0.14941677139968695,-4.551613822845997,0.3284921090700075,5.974513531215246
0.000149893801188277,0.0012354428598406921,-0.0003477059150450963,-0.04066135358581017,0.0315731057675858,-2.3526510690110047,0.009676396000019682,24.497647230453182,0.002154341389132713,-0.002447137155593477,-0.0019330208225148463,-0.21374385300585563,-0.15789920122049225,-4.241214910402654,0.2964184774323051,5.9851511547332645
0.0001516972143549361,0.0009017065833295539,-0.00032085778223901957,-0.03862686025651042,0.026896295905777207,-2.3384049309042947,0.017562165250489148,25.817834304889377,0.0021457481542728725,-0.004296617429920321,-0.0017755198114139956,-0.20319845313528342,-0.16582237001914532,-3.961584399326538,0.26630034499326016,5.981372306193213
0.00015288688787782316,0.0005948367614435265,-0.00029462032773059407,-0.03665138895429265,0.022263049241970857,-2.316623331903176,0.024822715215071067,27.00718519183131,0.0021337687824565907,-0.005989685908140989,-0.0016229090335202379,-0.19309172827768037,-0.17324446995581988,-3.71104996833728,0.23794625986551665,5.96218729848342
0.0001535145874302244,0.00031384977620062997,-0.00026923962557651035,-0.03474123490565159,0.017687316352988192,-2.287866444491333,0.031474409313694496,28.07043520595645,0.002118702353409425,-0.007533214523582748,-0.0014760797233228503,-0.18342844870494748,-0.1802208754029006,-3.4882027235403554,0.211353287637144,5.926814109348878
0.00015363018193328759,5.779725153159086e-05,-0.0002448479397366523,-0.032899865919418465,0.013181833720121553,-2.2527413164333194,0.03752006349155357,29.011801761473514,0.0021008360496503472,-0.008933151879538914,-0.0013353403433965425,-0.17420416272303588,-0.18680338448588943,-3.291254541494407,0.18660598856018873,5.880692996878032
0.00015328173898966467,-0.00017422147181145426,-0.0002215633812050413,-0.03113061714739573,0.008758008007795616,-2.211912856162969,0.04297548667026341,29.836569630463273,0.0020804469424930386,-0.010194553578654283,-0.0012010792149416112,-0.1654178455673444,-0.19303927920431005,-3.1179473592103055,0.16371292980785057,5.830428234100243
0.00015251487504878655,-0.00038343197043906634,-0.00019951249662464272,-0.02943679749522809,0.004426088224792001,-2.1659598915018075,0.04787833705629141,30.55129044010586,0.00205779804128957,-0.011324450601734277,-0.001073896962695069,-0.15707192635603828,-0.1989721509138909,-2.9664358547904204,0.14254659910032563,5.773926864045883
0.00015137248368378276,-0.0005711956825018882,-0.00017879251550826253,-0.027818951216676168,0.00019527907278954146,-2.1154045760012297,0.05227623661707059,31.161571905089524,0.0020331367675008806,-0.012330636894344722,-0.0009543094753432391,-0.14915755112029797,-0.2046423946666759,-2.83512187639249,0.12291120658890065,5.71040536636597
0.00014989464345790943,-0.0007389201129366665,-0.00015943841948800003,-0.026276126959224218,-0.0039261678746640985,-2.06072347372682,0.05621142734734674,31.6724849181816,0.0020066945038158864,-0.013221131842497019,-0.0008424785417686263,-0.14166049227835956,-0.210087587071835,-2.722596202579561,0.10463590043974569,5.6394388759588665
0.00014811860458748918,-0.0008880194352101201,-0.00014142104290742498,-0.024806487901030804,-0.007930863662806688,-2.002347894071294,0.05971251123053545,32.08870246830158,0.0019786865317460707,-0.014003986034907837,-0.0007381627164341209,-0.13456379116911135,-0.2153428779766228,-2.627645452393899,0.08762807591908217,5.560347957047037
0.00014607887361584008,-0.0010198654858245527,-0.0001246714556097398,-0.023407584870989064,-0.011812210085553582,-1.9406732113734468,0.06279630673842085,32.41447750991139,0.0019493125674179114,-0.014686982164079692,-0.0006408723292211311,-0.12784872300005407,-0.22044128280588599,-2.549202414631592,0.07186521009168034,5.472788955795057
0.00014380765301149527,-0.0011356103021723943,-0.0001091205619060514,-0.022076716322351773,-0.015564482297551207,-1.8761361059988124,0.065479760306414,32.65376119626784,0.0019187600596138226,-0.015276253902044406,-0.0005501591080351222,-0.12149634592139422,-0.2254130085413253,-2.4858628677196566,0.057322438484988636,5.38130642524933
0.00014133488159658584,-0.0012363857074547224,-9.472337464266456e-05,-0.020812258487110248,-0.019182774669099234,-1.809146185774013,0.06779072372105488,32.81138627924753,0.0018872043127240966,-0.01577787344486297,-0.00046579983670422525,-0.11549473645115574,-0.23028561720603474,-2.436304332354728,0.04390395544496917,5.286305699897537
0.000138688176304485,-0.0013233526460504175,-8.144744625402582e-05,-0.019612276367096934,-0.02266288648110377,-1.7400559060022684,0.06976602682957112,32.892025187339996,0.0018548077094971036,-0.01619830161349653,-0.00038770074737599393,-0.1098310640480896,-0.23508458106378116,-2.399481928873206,0.03145198613394973,5.186064075129817
0.00013589288421154505,-0.0013976460464699657,-6.924808582863212e-05,-0.018474166738563072,-0.026001229907767265,-1.6691717133317465,0.07144180634645958,32.89970453436511,0.001821719733788918,-0.01654398785409283,-0.00031569235053848996,-0.10448926288224816,-0.23983372309729736,-2.374571016758097,0.019805450706629646,5.079245762899733
0.0001329722363101648,-0.0014603239506901285,-5.805929361294836e-05,-0.017395054517045174,-0.02919477392878549,-1.5967720105091132,0.07284723576804553,32.83794467230643,0.001788077792544802,-0.016820970622057903,-0.0002494443382484793,-0.09945203410844429,-0.24455544979011437,-2.360863346408499,0.008839787117553177,4.965441347752279
0.00012994750768818568,-0.001512364310989566,-4.779837345911557e-05,-0.01637217960724293,-0.03224099375146609,-1.523109911340303,0.07400269041936536,32.71001233627233,0.0017540080809503543,-0.017034855797223834,-0.0001884870138412504,-0.0947029261441856,-0.24927096030134463,-2.35775525561513,-0.0015195115197093045,4.844277315409494
0.00012683818012963833,-0.0015546637792736746,-3.837102295201338e-05,-0.01540295136069962,-0.03513782617373125,-1.4484162111325771,0.07491808588035564,32.51894679554443,0.0017196264727688275,-0.017190804090763446,-0.00013223542390970733,-0.0902265291088973,-0.2540004280974569,-2.364733898056129,-0.011283786111376148,4.715448063481517
0.0001236621783399623,-0.0015880008948380188,-2.9684012580835986e-05,-0.01448498957100346,-0.03788367366813155,-1.3729237472001499,0.07559641244782922,32.267591019108075,0.001685040107073266,-0.017293182847780798,-8.009191087340536e-05,-0.0860086268230626,-0.2587628796395057,-2.3812257710244276,-0.020420994046991048,4.580194026983984
0.0001204359839561023,-0.0016130971919299914,-2.1676711191299307e-05,-0.013616429404140627,-0.0404773646985077,-1.2968455151880727,0.07605137180155297,31.958958308441666,0.0016503479332837224,-0.017346086894771785,-3.1741832252168284e-05,-0.08203809646843369,-0.26357634878369635,-2.4067345720953113,-0.028967124954907497,4.4383271011250445
0.00011717521444085894,-0.0016303847576216825,-1.4337384680903243e-05,-0.012795516447679374,-0.04291839844669624,-1.2205168740942716,0.07632319099768325,31.59589213737334,0.0016156457311729577,-0.017351101055382394,1.2673748370663554e-05,-0.07830435885450798,-0.2684562121131952,-2.4399316647494422,-0.03713091838634619,4.299356861460412
0.0001138938669093361,-0.0016406737657614226,-7.659664289629085e-06,-0.012022349584779586,-0.04520649280909282,-1.1440471811982909,0.07646261862955206,31.183272645422967,0.001581018630892138,-0.017313550140409768,5.295055771177039e-05,-0.07480906784040012,-0.27341792868886666,-2.480858287835718,-0.045198588730812395,4.149706590387886
0.00011060437343663379,-0.00164474673635115,-1.5813433492437414e-06,-0.011294057021507466,-0.04734143713017691,-1.0674721605420454,0.07649516457852978,30.722655560702243,0.0015465408659612562,-0.017238882465440974,8.941248493004803e-05,-0.07153411238717286,-0.2784779475724281,-2.5300094417807264,-0.053307075549845484,3.9846912454934835
0.00010731810435421944,-0.0016431345412071697,4.014131492088586e-06,-0.010607647532834462,-0.049323208264701275,-0.9908855672621822,0.07640940948332353,30.21451354718372,0.0015122799348821325,-0.01713046553956184,0.00012293646531193712,-0.0684596742689128,-0.28365296008158536,-2.5875062545786314,-0.0613619130649008,3.8082617864560167
0.0001040456820267788,-0.0016362111637203242,9.243625037192393e-06,-0.009961679082403885,-0.05115205669656049,-0.9144242159296074,0.07617625026204905,29.660245988343114,0.001478299200428504,-0.016990367226814202,0.00015446728068050503,-0.06557566579042515,-0.2889593105995424,-2.653175258978526,-0.06915060595348943,3.623780644974021
0.00010079718482086017,-0.001624248602959316,1.4185576441739828e-05,-0.009355658259344127,-0.0528285836462941,-0.8382634748668037,0.07576976086934073,29.06198024791224,0.0014446596291053531,-0.016819785661575493,0.0001846454231677324,-0.06287808390878133,-0.29441243838888453,-2.7265638946710875,-0.07647170704516015,3.4346597059871096
9.758221714937247e-05,-0.0016074838357438479,1.88781983505382e-05,-0.008789696743491423,-0.05435377311126768,-0.7625947324867879,0.07517406648788083,28.42252721689034,0.001411420328729877,-0.016619650187738116,0.00021376939599603538,-0.060367034602656355,-0.30002658569356866,-2.8070736523420527,-0.08317972417327191,3.2430615900872906
9.440992877283106e-05,-0.001586144188270709,2.333340739560331e-05,-0.008264056579671969,-0.05572900723963269,-0.687617064182509,0.07438161412202521,27.74505292068215,0.001378638647559549,-0.01639084058516399,0.00024191089850361322,-0.058043781934318944,-0.3058146008583338,-2.894007582382564,-0.08917654826280774,3.0507404392187345
9.128900484927602e-05,-0.0015604619617775217,2.7549259597317685e-05,-0.007778976436698027,-0.05695606889754387,-0.6135308289555894,0.073390025191096,27.032958134627478,0.0013463700142807462,-0.016134316639401337,0.0002690235818974228,-0.05590966183014051,-0.31178781595905786,-2.9866075503620237,-0.09439326354681787,2.859119912536751
8.822765252639279e-05,-0.0015306761614416158,3.1516982707664905e-05,-0.007334567237402653,-0.058037144079056496,-0.540537590756314,0.0722001495491692,26.289783103596946,0.0013146677766011198,-0.01585111883981318,0.00029500466703649957,-0.05396541823107731,-0.31795592004262585,-3.0840520417840085,-0.0987788531190743,2.66970360515818
8.523357600856219e-05,-0.0014970382589153002,3.542160557068875e-05,-0.006930797375203404,-0.05897481743174627,-0.46883667634488624,0.07074425563726866,25.519207085061616,0.001283582938061157,-0.01554241926998141,0.00032144977388849204,-0.052211183461028265,-0.3243268714534212,-3.1854757053976686,-0.102074307121367,2.483836206754452
8.23139435282093e-05,-0.0014598162401764482,4.023840800242444e-05,-0.00656744738932241,-0.05977205988001611,-0.39862122413492224,0.06866205276910223,24.724995374697205,0.0012531638111541903,-0.015209563453483342,0.0003568070126776365,-0.05064619745622301,-0.33090685769710654,-3.289993121842679,-0.10314341367085511,2.3026415086318752
7.947536240187359e-05,-0.001419290563167851,4.747774671202119e-05,-0.006244075024449378,-0.06043221969964403,-0.33007990981396235,0.0653548041112168,23.910936326028697,0.0012234557726021858,-0.014854019276002245,0.0004138859370335594,-0.04926856384799784,-0.33770023060819215,-3.3966864555428065,-0.10026263135243618,2.127410656589812
7.672384727142368e-05,-0.001375757565224957,5.6763900146191565e-05,-0.0059600385381903005,-0.060959006031296344,-0.26339316582615646,0.060833906012892985,23.08086455710259,0.0011945009390687325,-0.014477416766726606,0.0004885107985857949,-0.04807548088021876,-0.34470948771172705,-3.5046285517674467,-0.09385493108869447,1.9592117377438187
7.411529419298786e-05,-0.0013042765392179108,6.45162725466011e-05,-0.0057144664977093924,-0.06137463683476991,-0.2078154017367826,0.05629006106510698,22.238599296781246,0.0011667798179950516,-0.013860560536840429,0.0005486522425704205,-0.047063010073247966,-0.35187864642015776,-3.5845793542153657,-0.08798145899498522,1.7991983748093485
7.165515701935676e-05,-0.0012300685868155516,6.736755737883691e-05,-0.005693123064072426,-0.06168620394178072,-0.15578355350540457,0.05300753804252733,21.52962207648276,0.0011403168009616266,-0.013231508516712486,0.0005654758853672857,-0.047375179115304575,-0.35920567055482155,-3.6635120673319084,-0.08642792570580848,1.5719763618054392
6.933027430839767e-05,-0.001162441355479545,6.584055176618684e-05,-0.005720551296182498,-0.06189446551590365,-0.10413078706146442,0.051002000236168576,20.84261448511528,0.0011149754919290706,-0.012670654516277937,0.0005454818655303579,-0.04787413751262026,-0.36670790477040555,-3.7511171077919983,-0.08839220242283186,1.348074781317771
6.713199061700698e-05,-0.0010991418456953398,6.285442689280473e-05,-0.005728965373287457,-0.06200139243330426,-0.05346345870030562,0.04935467793798171,20.130301460693083,0.0010906684587168511,-0.01215351660610973,0.0005160343971564955,-0.048144276611495215,-0.37439564274741727,-3.8438689885058714,-0.09007295526808923,1.158126115320146
6.505491792659707e-05,-0.0010385363452049593,6.0322665547903054e-05,-0.005732405203561006,-0.06201034792059305,-0.004477743644390679,0.04734769985232164,19.4023696104958,0.0010673463878337563,-0.01166103544154741,0.0004945552800288749,-0.04829926284113727,-0.3822705405621882,-3.9374489073854533,-0.08869143778656996,1.0143272438015831
6.309570422816819e-05,-0.0009796068492144362,5.848313268548203e-05,-0.005741229168847362,-0.06192608763444349,0.04213014307477964,0.044797988403418566,18.670270530843798,0.0010449867084943345,-0.011179839669710905,0.0004828183628891895,-0.04842946157565302,-0.39032513703562716,-4.027298236719482,-0.0835631866232911,0.9231171273922669
6.125182157812148e-05,-0.0009219413250233523,5.6959948381239624e-05,-0.005761892901103394,-0.06175443218155323,0.08582772644512833,0.04177344498985813,17.945874144211327,0.0010235806261888318,-0.010703041152751433,0.00047684481817146084,-0.04859947250087435,-0.39854453626589986,-4.109699615136343,-0.07502092261872173,0.8784396840240554
5.952074822137523e-05,-0.0008655366783731244,5.539716446700577e-05,-0.005796775040416776,-0.06150200721918838,0.12621248118242462,0.03838186088774299,17.238913757789064,0.0010031243039098745,-0.010228161139478616,0.0004728395779988268,-0.04884285685513308,-0.4069077236555451,-4.181593694822625,-0.06359052924027786,0.875721371334981
5.789943386765478e-05,-0.0008106571768602269,5.3552769831017894e-05,-0.005845392895636592,-0.061176038504608544,0.16298435728991922,0.034719191288772794,16.557414948020124,0.00098361303759887,-0.009755633155502283,0.00046815036912399837,-0.04917162469357663,-0.4153885817518264,-4.240429048140654,-0.04974604335653421,0.9116194022980229
5.638396326796824e-05,-0.0007577352998432709,5.1276840019526704e-05,-0.005905286535539,-0.060784181791783784,0.1959283564123808,0.03086393561703442,15.908046192033762,0.0009650374719838109,-0.009287782807529482,0.00046108018738240646,-0.049583137982397066,-0.42395672678397484,-4.284072516074215,-0.03387016863432635,0.9834115234239338
5.496936729517241e-05,-0.0007072979863979133,4.848694240730159e-05,-0.005972645554722126,-0.060334387523030004,0.22489713437688913,0.026879268347599516,15.296329191349429,0.0009473813679644184,-0.00882805200969625,0.00045063485327404874,-0.05006483316071467,-0.43257815809109773,-4.31071565356146,-0.016264593675913375,1.0891061239217725
5.36495378706905e-05,-0.0006599147122409529,4.514886857555459e-05,-0.006042787554278825,-0.05983479222653075,0.24979764824962855,0.02281612034651545,14.726859241255731,0.0009306204494736286,-0.008380459245394907,0.0004363177255307998,-0.05059787674795381,-0.44121576665345535,-4.318804281178809,0.0028327043258675744,1.2272310758735494
5.241721653299117e-05,-0.0006161606688496616,4.126306716727119e-05,-0.006110504588494016,-0.05929363273451996,0.27057974600539725,0.018718282916151033,14.203472944214736,0.0009147220186943647,-0.007949215389631965,0.00041795997097682095,-0.05115974872037062,-0.4498297229630394,-4.306978154792043,0.023215049766172946,1.396761068814012
5.126403362083128e-05,-0.0005765914560799476,3.685741550085481e-05,-0.006170318624660478,-0.05871917160144968,0.28723056653513873,0.014635183777138683,13.729393630275087,0.0008996450330504925,-0.0075384928219361345,0.00039554012285023107,-0.051726124921287114,-0.4583778187612418,-4.2740478991011885,0.044619457769872195,1.5967015020321473
5.018058688237493e-05,-0.0005417233692281746,3.198881352519208e-05,-0.006216666531593996,-0.05811965153128284,0.29976003508342114,0.01064034205847636,13.307292982407757,0.0008853406961884992,-0.007152168430996676,0.0003690343946315005,-0.05227203919537045,-0.46681563911203794,-4.218910175398088,0.06659449517875293,1.826867175900242
4.915654567266191e-05,-0.0005120206048565089,2.675190163572077e-05,-0.006244053791846831,-0.057503182902767506,0.3082343142576659,0.006835310651567089,12.939494933133503,0.0008717525899929458,-0.006794053097776663,0.0003384677145685062,-0.05277322746385631,-0.4750972199079602,-4.14079039796114,0.08846151281968906,2.083852457282498
4.8180859720660916e-05,-0.000487842976000496,2.1283596843007775e-05,-0.0062471649005270075,-0.05687728818757361,0.31294735759694925,0.003325036715097457,12.627440156965317,0.0008588145196745399,-0.006469035159202986,0.000304188402812777,-0.05320499351042247,-0.48317814276820603,-4.0404614301229165,0.10947283310241507,2.3484847978881307
4.724214796825812e-05,-0.0004693558762013971,1.5752141909157447e-05,-0.006221271112112785,-0.05624870184885178,0.31429316936091606,0.00018617248694341448,12.368976092317789,0.0008464523363281221,-0.006181091673208917,0.0002670608886348098,-0.05353627617142509,-0.4910170494456552,-3.9194533387245936,0.1290289448317945,2.610147966798859
4.632910299140387e-05,-0.00045652248842712774,1.0334340548362513e-05,-0.006162938460240552,-0.055623324327257716,0.3126887607970301,-0.0025418468120647353,12.160213014241858,0.0008345872677396853,-0.005932534294218424,0.00022833709141209567,-0.05373977526676282,-0.49857617961912487,-3.7795650867348165,0.14675070186492767,2.863740504518381
4.5430854973621675e-05,-0.00044912400889109567,5.194992605356719e-06,-0.006070163179268862,-0.05500619559095744,0.30856436815014,-0.004845133567495941,11.996665886221859,0.0008231389472588851,-0.005724160240400077,0.00018936133445733062,-0.05379605530286293,-0.5058218102745783,-3.622815327726705,0.16241281762902027,3.1045434367020275
4.4537287996693676e-05,-0.0004467834884640001,4.7641690582021e-07,-0.005942302932472205,-0.054401484582133765,0.3023555044118365,-0.006722074157190949,11.873393155035096,0.0008120280809035714,-0.005555433177656832,0.00015135829207736174,-0.05369309352390461,-0.5127246123076327,-3.4514010165272158,0.17586225146660217,3.3281994066880447
4.3639296505022114e-05,-0.00044899574583577996,-3.703866465712874e-06,-0.005779973180090641,-0.053812509722938495,0.29448742959763385,-0.008175453912791453,11.785112808462621,0.0008011788354840201,-0.005424622709775624,0.00011534822461717114,-0.05342564220207957,-0.519259807716777,-3.2675977045721707,0.18696921499164976,3.531540260076067
4.27289847029875e-05,-0.00045515590101730797,-7.2523158389721e-06,-0.0055848890801216255,-0.05324176149765496,0.28537411264177054,-0.009209080776120676,11.726441472916974,0.0007905206937655711,-0.005329070859224497,8.21355297178231e-05,-0.052994769999502554,-0.5254073165994398,-3.0737544413314204,0.195606814539925,3.7114704662489717
4.179984105124269e-05,-0.00046457182587240475,-1.0098345571170282e-05,-0.005359705633463283,-0.05269087623079912,0.27544263342791736,-0.009827857972744242,11.691916759669951,0.0007799895553514958,-0.005265569207037642,5.233267655125641e-05,-0.05240671508045035,-0.5311522516699115,-2.872467535235866,0.20165378460768513,3.862650904822802
4.084685341015997e-05,-0.0004764938205413611,-1.2192092627624708e-05,-0.005107965429118499,-0.052160661640832676,0.2651072949832216,-0.01003669108574426,11.675623367820986,0.0007695289111735246,-0.005230322088985636,2.637694652524213e-05,-0.05167110949996414,-0.5364850593161941,-2.666403823141242,0.20498867266461307,3.981991157016913
3.9866574254874746e-05,-0.0004901395776426128,-1.3501757679548353e-05,-0.004833913938275609,-0.051651126372235664,0.2547676342985071,-0.009838378227933486,11.67158906750144,0.0007590906330160554,-0.0052191390787345755,4.5400679945378775e-06,-0.050801280672426306,-0.5414016244141295,-2.4582825489677456,0.2054764747564808,4.066721672835746
3.885714278745344e-05,-0.0005047157337106536,-1.4019579991907517e-05,-0.004542337807441482,-0.051161508566355623,0.24480890294002006,-0.009243637136965188,11.673823397193031,0.0007486353975359381,-0.005227617740058653,-1.3001914030251124e-05,-0.04981336790794286,-0.5459033695667097,-2.250872576290071,0.20304190062214866,4.114216919151573
3.7818394283676315e-05,-0.000519374251888565,-1.3779107771738695e-05,-0.004238418421504679,-0.05069012709060115,0.23569073787723524,-0.008294487437203693,11.67631902580641,0.0007381319497652439,-0.005251723885347056,-2.6066653392889643e-05,-0.048725451053318,-0.5499986143116904,-2.047622372490334,0.19784180387220274,4.1135821460287145
3.6751766031689315e-05,-0.0005333141259934993,-1.286386515316325e-05,-0.003928059093527958,-0.05023452285181073,0.22780211939521042,-0.007071665955497172,11.671677059021789,0.00072755806489812,-0.005286942433561994,-3.449927671313408e-05,-0.04755457554981109,-0.5537018919642511,-1.8516388262803476,0.19032988176229937,4.06725709966394
3.565990477096037e-05,-0.0005459306303644733,-1.1390228785951675e-05,-0.0036171543244045224,-0.04979190084737898,0.2213110022158768,-0.005668784774792254,11.653325064615098,0.0007169021449999285,-0.005327959949095739,-3.8357301246991476e-05,-0.04632109432201152,-0.557031036685057,-1.6645723604029419,0.18108352205659206,3.993007421453003
3.454642557644878e-05,-0.0005567395972557933,-9.479304860725811e-06,-0.003310466541615692,-0.04935924613835411,0.21632735451243473,-0.004161329992598564,11.617905220975498,0.0007061619464277199,-0.005370099286104258,-3.8016992297580134e-05,-0.04505041475449667,-0.5600064659599174,-1.4877146374302088,0.17058407216042326,3.8949201390776733
3.34156841158438e-05,-0.0005653707303024895,-7.241102878229272e-06,-0.0030121079345401787,-0.04893341473220466,0.2129157030747243,-0.002599524081831242,11.5628635238197,0.0006953431468986946,-0.005409399764512696,-3.408034883343406e-05,-0.04376569821227061,-0.5626505997477244,-1.3220668939034843,0.15915832406846253,3.77644698035368
3.227256760405916e-05,-0.0005715582558923212,-4.7721412964571745e-06,-0.0027255417110316005,-0.04851120749766968,0.21110361726749238,-0.0010174289593409686,11.486288873540477,0.0006844579091857384,-0.005442618856478112,-2.7216000881597358e-05,-0.042487315867315106,-0.5649873681501525,-1.1683842012140437,0.14703471278069447,3.6406557704714877
3.112231473668443e-05,-0.0005751264336873622,-2.156487640018654e-06,-0.002453605729568693,-0.04808942331216112,0.21089209275427842,0.0005592084117737595,11.386807990288519,0.0006735234917938942,-0.005467208695922087,-1.8063426996854995e-05,-0.04123269663619038,-0.5670418427907484,-1.0272373202979574,0.1343937100347531,3.4899422130593596
2.9970365841934352e-05,-0.0005759744473750405,5.337216701113007e-07,-0.002198577911568015,-0.04766489580738246,0.21226375238933218,0.0021097748263200072,11.263445602334102,0.0006625609786858229,-0.005481256554035648,-7.198368270930171e-06,-0.040016305699773276,-0.5688399686604101,-0.8990629348308177,0.1213873785759031,3.3261322451717703
2.8822223792772697e-05,-0.0005740710245808272,3.2380298985846103e-06,-0.0019622520367663394,-0.04723453798472311,0.21517891132967404,0.0036176356718951863,11.11551245637481,0.0006515942439410591,-0.005483367372381881,4.876760815202951e-06,-0.03884981509841064,-0.5704082264782508,-0.7841289089203973,0.10814547581739464,3.151591209997944
2.7683347597604263e-05,-0.0005694380975842168,5.90603014607305e-06,-0.0017459475865278223,-0.046795368520470185,0.21958473212646062,0.005068275220343532,10.942677725471786,0.0006406490055092218,-0.005472619215918653,1.7738161502373756e-05,-0.03774258753220286,-0.571773414810482,-0.6825941661155778,0.09478724370214209,2.967950525150032
2.6559069106281225e-05,-0.0005621392456615187,8.491241420705324e-06,-0.0015506028363896588,-0.04634453130854276,0.22541860596371108,0.0064431181766159695,10.744839574244109,0.0006297520360095566,-0.005448484749832652,3.105516843592742e-05,-0.036701804471315366,-0.5729624744564235,-0.5945298229707127,0.081465399183559,2.776592804724368
2.545452895601658e-05,-0.0005522700751323228,1.09433375680947e-05,-0.001376839101609832,-0.045879311214809995,0.23261004686638265,0.007712091786039599,10.522080303107199,0.0006189305279890387,-0.005410754010258949,4.45957208206494e-05,-0.0357327798517824,-0.5740023361683747,-0.519930855975607,0.06842121704357837,2.578764595215178
2.4374605921462592e-05,-0.0005399615172769939,1.3211047796353307e-05,-0.0012250152653122386,-0.045397172034345776,0.24106959023211066,0.008837981021437444,10.274642661447304,0.0006082116851162953,-0.005359421436371737,5.817765586164838e-05,-0.03483928274761669,-0.5749196037389794,-0.45863378530238363,0.05595582424899151,2.3768454038876365
2.3323641897611484e-05,-0.0005254820119255549,1.5258519276899619e-05,-0.001095190563389017,-0.044896024008247284,0.2505740130492441,0.009794930056813228,10.003107756822077,0.0005976231849762167,-0.005294250070039289,7.158587424022263e-05,-0.034024061329767985,-0.5757385527881431,-0.40947452458183065,0.0442971863725069,2.1847265224429697
2.230546677538314e-05,-0.000509087561114172,1.7076492932925473e-05,-0.0009863542960875564,-0.04437417251943002,0.2609257444086315,0.010580697409379086,9.71019700673557,0.0005871921009292577,-0.005215542023479463,8.455322541838775e-05,-0.033291068147406164,-0.5764813823059594,-0.3714147589081116,0.03350757528471732,2.001429372134459
2.132346394325622e-05,-0.0004910014160634598,1.8675255425095686e-05,-0.0008974804272800668,-0.04383023893972584,0.2719667898520931,0.011209239010130628,9.39836558969959,0.0005769440793029158,-0.005124010813170944,9.68292014702399e-05,-0.03264149997553059,-0.5771686854302704,-0.34365156215556897,0.023531211969338273,1.8243855164146079
2.038059701459671e-05,-0.00047143346432975504,2.007094618761959e-05,-0.0008276828762471306,-0.04326313359786398,0.2835526709309269,0.011696758898402465,9.069569834136416,0.0005669030169617217,-0.005020531170597012,0.00010824492453281268,-0.03207435386443185,-0.5778195625606681,-0.3254385651988197,0.014291688852605372,1.6533225340947282
1.9479439151846243e-05,-0.0004505789313752334,2.127842473539251e-05,-0.0007760851525876983,-0.04267203193921594,0.2955508293240217,0.012055295516779696,8.725650015395278,0.0005570908863051058,-0.004906065328307964,0.0001187180568938003,-0.03158764584318667,-0.578451719240801,-0.3160783400663934,0.005738321069855834,1.4880244287753808
1.8622206959605712e-05,-0.00042861609612026506,2.2309174333365024e-05,-0.0007418353107585584,-0.04205634959002577,0.30784117459508403,0.012291687566735321,8.368347141904401,0.00054752765169513,-0.004781617304987944,0.00012822904926462894,-0.0311787619889891,-0.5790815789156004,-0.31492983739973623,-0.002144955324911879,1.3281343335343583
1.7810786178912123e-05,-0.00040571039034679454,2.3170576029445805e-05,-0.0007241287190749997,-0.041415728120373294,0.3203107348262399,0.012407727012423042,7.999287258081512,0.0005382312930252022,-0.0046481793349638445,0.0001367974149766478,-0.030844678644590375,-0.5797243243285252,-0.3213727064623974,-0.009339073454927932,1.1737429332592164
1.704673531834389e-05,-0.00038202543028411707,2.3868139787278374e-05,-0.0007221845033315829,-0.04075004447367666,0.33284182334831736,0.012403160303143868,7.620057413718327,0.0005292179363180276,-0.0045066783535873,0.00014445442923196727,-0.030582232627713413,-0.5803937693910276,-0.33472253125120427,-0.015810211245522038,1.0260790765283234
1.6331267426860272e-05,-0.0003577339457418084,2.4410286159828545e-05,-0.0007351690516987429,-0.040059442304431314,0.34530108462267434,0.012281128076713832,7.232385991878282,0.0005205020250772033,-0.004357955620412121,0.00015121798205737893,-0.03038840186387399,-0.5811020673159742,-0.3541489624732979,-0.021548841676604563,0.8875141223737466
1.5665287188039402e-05,-0.0003329901194104354,2.481101846953923e-05,-0.0007621158651751397,-0.03934430395752583,0.3575691734527423,0.012051171299911817,6.838316421989229,0.0005120962286389763,-0.004202898219113492,0.00015708820255464287,-0.03026042440567568,-0.5818598432846003,-0.37888798431302084,-0.026592511773122413,0.7575837079907259
1.5049433439270721e-05,-0.0003079268743843403,2.5088206706519266e-05,-0.0008021266017034776,-0.038605215606355936,0.36954417558494695,0.011727493328696409,6.4397535854665575,0.0005040113873685522,-0.004042420635212064,0.00016206377521739358,-0.030195131768322843,-0.5826763833287681,-0.40827002208392216,-0.031014803307914007,0.635404001954945
1.4484117815448917e-05,-0.0002826578119109018,2.5259950519050916e-05,-0.0008543985671976592,-0.03784293514433495,0.38114023101049455,0.011325158515975292,6.03840204813256,0.0004962565241816581,-0.0038774315934470907,0.00016615955568454062,-0.030189035560806037,-0.5835598110719319,-0.44171387158187675,-0.034898782461872335,0.5201267554650051
1.396956664769039e-05,-0.0002572755838792638,2.534154027898617e-05,-0.0009182188796936597,-0.03705835551920078,0.3922898125670829,0.010856927617537732,5.635777078143018,0.0004888388810349245,-0.0037088215733667696,0.00016941354009368504,-0.03023849445091497,-0.5845173052879562,-0.478747108012157,-0.03831409440869929,0.4105802675985992
1.3505846193582405e-05,-0.00023186022705399257,2.5343537450370847e-05,-0.0009929842424247206,-0.036252484211607906,0.4029356537964357,0.010331301285792432,5.233159467253991,0.00048176404427024484,-0.003537418382339831,0.0001718842626660705,-0.03033978023667867,-0.5855552079597216,-0.5189513358826886,-0.04130202067294925,0.3062892249252376
1.3092885148858077e-05,-0.00020648052236216423,2.5271556202969975e-05,-0.0010781476493056281,-0.035426424409247065,0.41302990118042077,0.009752359556382068,4.831710456535826,0.0004750360735650712,-0.0033639853525868134,0.00017364050893506106,-0.03048931251532582,-0.5866791244452786,-0.5619582427784746,-0.043873129944175915,0.2068054892722051
1.27304674204886e-05,-0.0001812088641847388,2.5128236101585474e-05,-0.0011732133732541433,-0.03458138526627692,0.4225195714850708,0.009121850909549284,4.4324788050678,0.0004686577107379045,-0.0031891814135833643,0.00017474619362233446,-0.03068368059359086,-0.5878938142044169,-0.6073448795691703,-0.04602135602515084,0.11309333347926609
1.2418228545102692e-05,-0.0001561194376929536,2.4915986244739753e-05,-0.0012776314348416432,-0.03371868655800948,0.43134935413372366,0.008442012575190366,4.0366220076069945,0.00046263050627019185,-0.0030136022338563325,0.00017524921836667364,-0.030919864005883924,-0.5892031183750465,-0.6546520853148058,-0.04774401265277062,0.025891825256960654
1.2155672394468762e-05,-0.0001312780753169645,2.4638448983297945e-05,-0.0013908096451553797,-0.03283974123898805,0.4394726595107115,0.007716996076172905,3.6453656553969864,0.000456954841040187,-0.0028378326150024194,0.00017518094155725885,-0.031195039457722867,-0.5906100468800758,-0.7034642525146642,-0.04905237601792556,-0.055137819897278284
1.1942169940977354e-05,-0.00010675122674570406,2.4300333327580565e-05,-0.0015121879516675695,-0.03194605484253468,0.44684319822668395,0.006952574716639098,3.259832479035736,0.0004516300056843291,-0.0026624176779289454,0.00017456304180239225,-0.03150632102901259,-0.5921167450310636,-0.7533490754938942,-0.04997008384626356,-0.12952657608723372
1.1776979854184032e-05,-8.259504339666094e-05,2.3906439388104664e-05,-0.0016411754009675154,-0.03103920201827649,0.45342641212909696,0.006155031277281786,2.8811684793601042,0.00044665419250959767,-0.0024879065873657223,0.00017341501341840019,-0.03185091217880418,-0.5937246270501726,-0.8039410095544718,-0.050525451520998355,-0.19794655108904635
1.1659256595632337e-05,-5.886162927584689e-05,2.3460698579858425e-05,-0.001777230667022297,-0.030120815055898833,0.45919348118882813,0.005330096583816973,2.5103644235465232,0.00044202454647435655,-0.00231482301762056,0.00017175839041316766,-0.032225886314137954,-0.5954344266627392,-0.8548998062833094,-0.050743855628796075,-0.2605324300280776
1.158805547562365e-05,-3.560056000434288e-05,2.2965827786027686e-05,-0.0019198199142174421,-0.029192574885542204,0.4641200851783134,0.004482539466574176,2.148342298937254,0.0004377372200286793,-0.002143663222838632,0.000169616775538835,-0.03262833955932121,-0.5972462314684326,-0.9059024028466883,-0.05064460737220333,-0.3173205044478431
1.1562336583147708e-05,-1.2859446237971208e-05,2.242359119035498e-05,-0.0020684071750957816,-0.028256202750898386,0.4681860673219083,0.003616381108590694,1.795971187988016,0.0004337874229075521,-0.0019748985605635896,0.00016701358769521165,-0.03305540588868905,-0.59915951375507,-0.9566411433187425,-0.05024229995300611,-0.3683322945473422
1.158096828276383e-05,9.315849808061565e-06,2.1835303189782627e-05,-0.002222451192990554,-0.02731345200083522,0.47137537503158294,0.002735339337737508,1.4540698154409473,0.00043016946596676213,-0.0018089784703949894,0.00016397007599276746,-0.03350424948792706,-0.6011731617361364,-1.0068239905331935,-0.04954991297760969,-0.4136015824040111
1.164272575311994e-05,3.087873517805561e-05,2.1202319291167197e-05,-0.0023814046051716838,-0.02636610433340542,0.4736738337148997,0.001843240485897929,1.12340497477686,0.00042687681021654275,-0.0016463278751096826,0.00016050462373791506,-0.033972054244699595,-0.6032854791802377,-1.0561587220506212,-0.04858181410464846,-0.452952720346814
1.1746295837831233e-05,5.17850423556464e-05,2.052618167627942e-05,-0.0025446962969002274,-0.025415959909795435,0.47507221180499115,0.0009440933431912879,0.8047237942981127,0.0004239020898178728,-0.0014873601993349718,0.0001566336672030622,-0.034456041646098584,-0.605494230509474,-1.1043756646181626,-0.04735438755593091,-0.48652768985471173
1.1890282020586417e-05,7.199309137759156e-05,1.9808282095790667e-05,-0.0027117544640450977,-0.024464827532275128,0.475566188760154,4.171847347581026e-05,0.49870479586375094,0.00042123713919689347,-0.0013324753104896586,0.0001523735268119076,-0.03495340798512693,-0.6077966874909603,-1.1512284907430923,-0.045883394436803115,-0.5144941406410215
1.2073206956807736e-05,9.146246811065919e-05,1.904955513862482e-05,-0.0028820080437940375,-0.023514517332962788,0.4751550996561698,-0.0008605763609413342,0.20595542828024715,0.00041887302913992783,-0.0011820550284828283,0.00014774119493139466,-0.035461337367246756,-0.610189659484726,-1.1964859968828634,-0.044181566202790346,-0.5369206105366571
1.2293512654846687e-05,0.00011015284901947598,1.8250762083913922e-05,-0.0030548786681429915,-0.02256683580985585,0.47384076155346916,-0.0017597731601216304,-0.07297129495372978,0.00041680010585757276,-0.0010364616411775338,0.00014275340089437392,-0.035977027771575756,-0.6126695077773876,-1.2399241463307937,-0.042260167662154235,-0.553775884425959
1.2549559214816428e-05,0.0001280232799848702,1.7413090136526373e-05,-0.0032297724741304486,-0.021623582305176525,0.4716267523396626,-0.002652646013905524,-0.3375606803452804,0.00041500802700034556,-0.0008960394286136016,0.00013742576317537142,-0.03649770237986632,-0.6152321500600747,-1.281321141343571,-0.04013267060858805,-0.5649670733013674
1.2839628268041064e-05,0.00014503452661231793,1.6538225299556433e-05,-0.003406074802879082,-0.02068654160833281,0.46852034842185697,-0.0035357380448238773,-0.5873265935419987,0.0004134857849077299,-0.0007611210463078366,0.00013177376076777128,-0.03702060555695498,-0.6178730943295528,-1.3204721347390431,-0.03781504648237777,-0.5706124069984346
1.3161932718342962e-05,0.00016115222515094912,1.5627741651837672e-05,-0.0035831673399155137,-0.01975747175633775,0.4645349259975294,-0.00440592357231262,-0.8218427438280056,0.00041222172760281697,-0.0006320286524564809,0.0001258144664044374,-0.037542973259246035,-0.6205875106015054,-1.3572081359762747,-0.03532170383919542,-0.5711093059503627
1.3514616169587155e-05,0.0001763417256220964,1.4682603448133035e-05,-0.0037604521197339004,-0.018838101333875024,0.45968521123136274,-0.005260840313190268,-1.0407823630616013,0.00041120360772558607,-0.0005090599386154394,0.00011956670191350563,-0.03806202949799777,-0.6233702352340343,-1.391362316264485,-0.03266221608935427,-0.5664055773900376
1.3895753548587453e-05,0.00019056868950014896,1.3703233387687703e-05,-0.003937315313298396,-0.017930126129352277,0.4539876022613738,-0.0060988069300084435,-1.243847768307881,0.0004104186230522313,-0.0003924923366773756,0.0001130495457437537,-0.038575061079473574,-0.6262157807627661,-1.422772764365847,-0.029841743983759383,-0.5564935144988876
1.4303351741831625e-05,0.0002037990966220863,1.2689754922181218e-05,-0.004113131536242928,-0.017035206175970624,0.44745997669082654,-0.0069185865977897665,-1.4307761951149844,0.00040985345348199795,-0.00028258478511666927,0.00010628098367742987,-0.03907940062183756,-0.6291183438260861,-1.451281531659995,-0.026862621371065543,-0.54135928840721
1.4735350530990455e-05,0.0002159993945794151,1.1642096333833076e-05,-0.004287264024691529,-0.01615496294929268,0.44012161333897215,-0.007719277605920172,-1.6013377975712695,0.00040949429496223643,-0.00017957925988074686,9.927741557623512e-05,-0.039572421422615627,-0.6320718128513994,-1.4767345126566223,-0.02372506054048551,-0.520994361162975
1.5189620374565815e-05,0.0002271349217876803,1.0560018873084838e-05,-0.004459065868229916,-0.015290979405272952,0.4319917720098647,-0.008500273708011402,-1.7553353152968239,0.0004093268931897769,-8.37008862297544e-05,9.205354436873783e-05,-0.04005153319681387,-0.6350697552984844,-1.498971223542506,-0.02042736735106121,-0.4952521147040705
1.5663962807682494e-05,0.00023717121655833991,9.443252443807148e-06,-0.004627868527391669,-0.01444479823615727,0.42309058455784043,-0.009261152464564437,-1.8925827585660313,0.0004093365688319276,4.837821075316268e-06,8.462237473389886e-05,-0.040514184887824434,-0.6381054183972483,-1.5178315493819663,-0.016966715749126227,-0.46408313362434317
1.615611198924103e-05,0.00024607459077926865,8.29205921741978e-06,-0.004792991077452686,-0.013617919623042278,0.4134393065574959,-0.010001267744111808,-2.0129192975204173,0.0004095082412612476,8.583621466001127e-05,7.699547997398366e-05,-0.04095784598855632,-0.6411717344209246,-1.5331580118381345,-0.013342211200201737,-0.42747563875951355
1.666372485685215e-05,0.00025380643380555905,7.107934888091758e-06,-0.0049537445332807975,-0.01281180775531052,0.4030559338658788,-0.010719265388605015,-2.1162137114497925,0.0004098264549186364,0.0001591068286944182,6.918408541346503e-05,-0.041380005199440316,-0.6442612604911959,-1.5447630351357025,-0.009558683145357794,-0.3849566883201665
1.718439535613014e-05,0.0002603352496389956,5.8933706775794845e-06,-0.005109390008012727,-0.012027879811747832,0.3919639717813444,-0.011413298869824118,-2.202296681395085,0.0004102753861548241,0.0002244656180938274,6.120098646270464e-05,-0.04177817963533257,-0.6473662494430608,-1.5524944759324217,-0.0056253367338470195,-0.33697979229213915
1.771566369444566e-05,0.0002656341691577593,4.6507356100782265e-06,-0.0052592258186787925,-0.011267499521326845,0.38019014521049327,-0.01208187439648567,-2.271095633195859,0.0004108388752698034,0.00028174455748966967,5.3061734939703834e-05,-0.04214986670594817,-0.6504786901706078,-1.5562203637735221,-0.0015495634403678293,-0.283805834395211
1.8255016489650198e-05,0.00026967639760226963,3.3818522227803014e-06,-0.005402571922952302,-0.010531977867122564,0.36776082710213986,-0.012724171670082052,-2.3226023217594003,0.00041150046843006977,0.0003307965801331685,4.4783972959718037e-05,-0.0424926103144198,-0.6535902964197544,-1.5558031245732935,0.0026655417932622827,-0.22534213457907182
1.879988777952935e-05,0.0002724356449395767,2.0889535644085303e-06,-0.0055387380811267916,-0.009822573565576836,0.354702150772864,-0.013339379561422005,-2.3568190463952945,0.0004122434542640515,0.0003714929169908663,3.6386453891523366e-05,-0.0428040297436629,-0.6566924977203062,-1.5511006502759046,0.00701627246479386,-0.16151363400381924
1.934766019508459e-05,0.00027388620777762024,7.766834008496846e-07,-0.005667027070460901,-0.009140493819711602,0.34103987293261684,-0.01392538817700889,-2.3737601919198505,0.00041305089723554236,0.00040372148574541774,2.7890360935005766e-05,-0.043081810011370396,-0.6597764288020854,-1.5419655408895965,0.011488216191475331,-0.09223722925157496
1.989568148567691e-05,0.00027401064529615894,-5.450018247595164e-07,-0.005786735493501385,-0.00848688531497557,0.3268042523680164,-0.014477006180240809,-2.373449948075738,0.0004139056763598302,0.00042738956214391776,1.9324257042858386e-05,-0.04332369715230269,-0.6628329944070959,-1.528282802505225,0.016041979931929018,-0.017978638297185823
2.0441266148607618e-05,0.0002727923314653543,-1.8600871893228316e-06,-0.00589721081424506,-0.007862835859409249,0.31202472778316004,-0.014985612049507963,-2.3559981910275827,0.000414790534705166,0.0004424291726679024,1.0730390208372938e-05,-0.043527515446687856,-0.6658528566823951,-1.509931137649622,0.020609286971240204,0.06133398492994724
2.0981750130006004e-05,0.00027024199069919304,-3.1524593362292628e-06,-0.005997799549985647,-0.007269342515087319,0.2967466721609652,-0.015443036050114128,-2.3215201589246837,0.000415688160416434,0.00044881285563399637,2.165300827140749e-06,-0.04369119933383403,-0.6688266811197288,-1.4869122186667958,0.02512153782962001,0.14388925551261433
2.1514611563253636e-05,0.00026643071662381645,-4.41349538775248e-06,-0.00608804396093659,-0.006707240331977395,0.2810510915549621,-0.01584637563869923,-2.270397327888266,0.0004165813858189932,0.0004466127012796148,-6.30896566380335e-06,-0.04381288031981829,-0.6717456998392984,-1.4595093597848536,0.02954692039314699,0.22548540326596545
2.203735846164635e-05,0.0002613734491963574,-5.640537998873052e-06,-0.0061679373290489704,-0.006177279331813954,0.26498050008172075,-0.016196946130461187,-2.2035942737311967,0.00041745331776734974,0.0004359659741782592,-1.4634794888309955e-05,-0.04389120208829956,-0.6746011582575073,-1.4277292091044258,0.03388402317552752,0.3099167687518334
2.2547551366324433e-05,0.00025509645233904096,-6.829025561981648e-06,-0.006237085836699307,-0.005680116429618225,0.2485814510978641,-0.016495195073330915,-2.1215237016816775,0.0004182874078820311,0.00041704505734068217,-2.2760289619027144e-05,-0.04392516164763485,-0.677384393754483,-1.391617748487827,0.03812404771045774,0.39650719547886615
2.304283683774935e-05,0.0002476427357124577,-7.969918722176315e-06,-0.006295185439660563,-0.0052163014164788675,0.23190750656967887,-0.01673898116760715,-2.024686837582472,0.0004190675495305282,0.00039007082424854405,-3.0634677762804706e-05,-0.04391396607492238,-0.6800869652749092,-1.3512857602131114,0.042237274583672546,0.4841822867562735
2.3520973126660537e-05,0.00023906814445559383,-9.05327053447439e-06,-0.006342066517534982,-0.004786268319133458,0.21501654867270456,-0.01692573356025552,-1.9137221736015508,0.00041977819005675266,0.00035532026311223605,-3.820633098775293e-05,-0.043857109074278804,-0.6827007484078247,-1.3068915664577723,0.046188879235952274,0.5720839999250331
2.397984547326078e-05,0.00022943617330012167,-1.0071153390588824e-05,-0.006377671636493738,-0.004390333305115265,0.19796750700909663,-0.01705419925602182,-1.7893677343505745,0.00042040443951338395,0.00031312472831563184,-4.542505809173569e-05,-0.04375442032123972,-0.6852179848872222,-1.2586182396987577,0.049952307900046566,0.6596640122727093
2.441748139937247e-05,0.00021881796305584417,-1.1017872553727154e-05,-0.006402022307762808,-0.004028692787458853,0.18082025882820613,-0.01712449951068437,-1.652412613601829,0.00042093217371078783,0.0002638670987019298,-5.224512047408412e-05,-0.04360606759293036,-0.6876313334783758,-1.2066742955768026,0.053510200160146515,0.7463518567557621
2.4832055576540503e-05,0.00020728708858401679,-1.1889050341300241e-05,-0.006415222021285837,-0.003701427555385338,0.16363261603675744,-0.01713751843101105,-1.503696046185429,0.0004213481182682601,0.0002079722787361309,-5.862656433500615e-05,-0.043412552864584945,-0.689933876632986,-1.1512715773051199,0.05685016251745689,0.831892928044457
2.5221897527785703e-05,0.00019492097562259978,-1.268056466300069e-05,-0.006417420735425028,-0.0034085051839145408,0.1464611857353988,-0.01709423579891109,-1.3440609739357798,0.0004216399208112667,0.00014590127150331162,-6.453472266522087e-05,-0.043174673220502315,-0.6921191411056542,-1.0926322363340963,0.059959887764405084,0.9159311390106617
2.558549807757431e-05,0.00018180027489430282,-1.3398005893828892e-05,-0.0064088263349281055,-0.0031497829583753433,0.1293611127695987,-0.016991464739856327,-1.1743662308566147,0.0004217962111960235,7.814519237838467e-05,-7.003186745204271e-05,-0.04289349843863998,-0.6941811155533868,-1.0309872238662985,0.06281481752113677,0.9981316307247451
2.5921520237690866e-05,0.0001680110800582782,-1.4137735456330673e-05,-0.006389701539763782,-0.0029250080958437953,0.11238743126577395,-0.016790565981486538,-0.9954818040313198,0.00042180665840505714,5.223604516830442e-06,-7.601612885754071e-05,-0.04257034708147876,-0.6961142900360114,-0.9665872413123363,0.06530422944942671,1.0779973012481214
2.622881439800448e-05,0.0001536470801568059,-1.526381951460511e-05,-0.006360381607975371,-0.0027338153068555563,0.09559639449411954,-0.01634720598097438,-0.8083090402334574,0.00042166202965474177,-7.231437515769548e-05,-8.579349394717716e-05,-0.04220678386310298,-0.6979137179558186,-0.8997139599035774,0.06707472401405185,1.1548596833817695
2.650641875815112e-05,0.00013880218007332107,-1.7372783106584227e-05,-0.006321292440733048,-0.0025757319606231166,0.07904167311621994,-0.015417290023977973,-0.6138013253551555,0.0004213542266755493,-0.00015390148959623344,-0.00010459407641327844,-0.04180463108969942,-0.6995750205942807,-0.8306513192310397,0.0675804575459194,1.2284685903284178
2.6750988303484355e-05,0.00012228477266661654,-2.0721197622544313e-05,-0.006272899012137445,-0.002449189563120952,0.06327119875108242,-0.013870980579587095,-0.4129055085564004,0.0004208525421086842,-0.0002508422834325485,-0.0001341813037993954,-0.04136591521955184,-0.7010968126522689,-0.7608960289940759,0.06663343701683894,1.2986056777281798
2.694900747181391e-05,9.90095841647781e-05,-2.4688258966167058e-05,-0.006206191069391402,-0.0023484384642465696,0.050375549437191185,-0.011911176289934423,-0.2143111123298992,0.0004200332672663793,-0.0004096374211524528,-0.00016815847924675533,-0.04083104279369244,-0.7024879021539435,-0.6955447508373344,0.06489298720047071,1.3683212043854702
2.7091263812690913e-05,7.112817043850131e-05,-2.810461374106736e-05,-0.006082868583513305,-0.0022688315070180376,0.03980347861426606,-0.009974547343638382,-0.051101702283856354,0.00041881969364311535,-0.000606786811632001,-0.0001955559014125475,-0.039955139620873936,-0.7037531250616161,-0.6326114538363218,0.06351668641794395,1.450634758362427
2.7171925036863472e-05,4.0330612086279544e-05,-3.001811674895104e-05,-0.0059161499556152145,-0.002206605599816251,0.03111295360089347,-0.00844411866053328,0.0835972728913621,0.0004171694868228831,-0.0008251034101161049,-0.00020821954097093606,-0.0388480353061391,-0.7048943934416547,-0.5706341900193108,0.06336480946912415,1.5404330614086699
2.718778676849645e-05,7.930865816489054e-06,-3.0008234943305453e-05,-0.005716699291934135,-0.0021587075630240806,0.02394901839608512,-0.0074693997883909825,0.1952873759314654,0.0004150651219154446,-0.00105218245371927,-0.0002038472069588955,-0.03759143163171051,-0.7059114987134998,-0.508552635922521,0.06442898827795532,1.6339521175148914
2.714179797138243e-05,-2.2994398557010647e-05,-2.8106071187155717e-05,-0.005493073414431184,-0.0021243250072793315,0.017191277872374542,-0.006895497965550011,0.28837699296600594,0.00041254551594418885,-0.001259802985627865,-0.00018543134321803625,-0.03624559992292844,-0.7067984520829221,-0.44347668471118595,0.06546102480421961,1.7308732401227742
2.7040790567548307e-05,-5.050370191706135e-05,-2.4685745978633254e-05,-0.0052673988043737165,-0.002104037861980112,0.010143572649609862,-0.0063365796055687585,0.3794283340982464,0.00040967996684365134,-0.001432774550268752,-0.00015934678989421318,-0.03495553666628804,-0.707546814602882,-0.37418125997997026,0.06435048032927382,1.8180328561482375
2.6892854780594047e-05,-7.39678934771302e-05,-2.037072402703686e-05,-0.0050546322000984845,-0.0020970328897025894,0.0035024861387612095,-0.005485911152738142,0.4790577688499491,0.0004065268623616887,-0.001576552240981302,-0.000131846631394149,-0.03380412393301637,-0.7081588559985362,-0.30602069782707353,0.059809405221271206,1.889935206665862
2.6709838636111864e-05,-9.15080722410915e-05,-1.5905623870499496e-05,-0.004860795701742828,-0.002099895791038453,-0.0014314506679319883,-0.004370743266059759,0.5765725748293417,0.0004031425154474509,-0.0016921734571189273,-0.00010647852470396281,-0.03276992503125796,-0.7086575712700963,-0.2493576357800287,0.052688219465161654,1.9600235220350373
2.6500864544999556e-05,-0.00010448704555615424,-1.1920136908459214e-05,-0.004701411221502781,-0.0021099274501174864,-0.0050158295395166955,-0.0032340405635264005,0.651440497330539,0.0003995746024547828,-0.001783956496334029,-8.438955960313925e-05,-0.03185338425914281,-0.7090612605463403,-0.20184463812202014,0.04506055590807506,2.0563456804962414
2.6272929930431255e-05,-0.00011396730728415091,-8.701613686632555e-06,-0.0045687635901132265,-0.0021250001718959824,-0.007536360889248016,-0.0022587830131952,0.7082156781280036,0.000395863214898302,-0.001855693778240418,-6.565183234489831e-05,-0.031037677763806497,-0.7093844627492313,-0.16160110144548304,0.038392267091867355,2.1747785629373437
2.6031380365938923e-05,-0.00012077478224616595,-6.230403595569826e-06,-0.004456814835069601,-0.002143443307947036,-0.009221568025526736,-0.0014874776740484695,0.7505454649074492,0.00039204187402699887,-0.0019106704356515502,-4.997995713999033e-05,-0.030307852598635228,-0.7096387005884439,-0.127118919606323,0.033061953630368596,2.3121423450590877
2.5780284199485072e-05,-0.00012554808322692452,-4.431420264582831e-06,-0.004360852597465414,-0.0021639504184115467,-0.010253555232255332,-0.0009265310583799506,0.7813565127670082,0.0003881384737287131,-0.0019517001491428875,-3.709213156053912e-05,-0.029650835224450507,-0.7098330889691731,-0.09719419036457527,0.029176940452910985,2.4653484567291244
2.5522724396262512e-05,-0.0001287799016112797,-3.38639657519686e-06,-0.004277220257294934,-0.0021855057095502626,-0.010777645569357877,-0.0006542130742083763,0.8029884540072627,0.0003841761261277121,-0.001981173800500507,-2.7022334581573737e-05,-0.029055346627139433,-0.7099748176130612,-0.07086432194409625,0.02741723375928037,2.632070003969174
2.5261024921183902e-05,-0.00013084973753930447,-3.2971275159866266e-06,-0.004203085567951886,-0.00220732582972225,-0.0109100600859938,-0.0008077716252318894,0.8173163964054033,0.0003801739043386725,-0.0020011108945197824,-2.012304493861786e-05,-0.028511743610281887,-0.7100695328581711,-0.04735762255492055,0.028955668249665542,2.810637009582243
2.4994667493283497e-05,-0.00013317871395020288,-4.1675108713831906e-06,-0.004136256821459844,-0.002229959538544636,-0.011316854411193036,-0.001425803218645185,0.8258486502065556,0.0003761434429796131,-0.00201523067952968,-1.6537445795107922e-05,-0.02801183596127651,-0.7101125566463995,-0.021511894114185356,0.034227248343054614,2.9995405432731426
2.4718359171164178e-05,-0.00013815416105965984,-5.583030230932358e-06,-0.004066682501049643,-0.0022563683436294976,-0.01320440254243087,-0.0023297700145235058,0.838740677731226,0.0003720845740558181,-0.0020294344618975247,-1.5671055602139517e-05,-0.027538190900294236,-0.7100799142335864,0.016321206406518355,0.041960514481395275,3.1852167184089706
2.4428466210567253e-05,-0.00014494648029846234,-6.956791845092947e-06,-0.003976592706794563,-0.002288811895164348,-0.016221775767425117,-0.0032363826636530755,0.8749765412252865,0.00036799501931329313,-0.002044777371262466,-1.6402151309420068e-05,-0.027061285096092142,-0.7099522799741289,0.06381712972876681,0.050001821998989684,3.340691408297877
2.412266425334037e-05,-0.00015290097861344256,-7.933200840763935e-06,-0.0038710678800622537,-0.0023289500878431275,-0.020069096339389653,-0.003959502016752778,0.9299702050607267,0.0003638715688498038,-0.0020617252317446746,-1.7740543777018886e-05,-0.02657561507502708,-0.7097143627859547,0.1189585940871048,0.056882346375230014,3.4695533549056377
2.3799654712223225e-05,-0.00016150477055857252,-8.462656902011683e-06,-0.00375422600035056,-0.0023779351202556157,-0.024492516206244055,-0.004458188227963157,0.9997214714437302,0.0003597109027140861,-0.0020803330678588485,-1.9122617866048795e-05,-0.026078530726241594,-0.709354346320526,0.18000823271435892,0.06222690968528804,3.5751170687429585
2.3458933441845335e-05,-0.00017036063518894467,-8.625594846438335e-06,-0.0036293975485561765,-0.0024364940937259276,-0.029279486735155933,-0.004758387789512842,1.0807682791703184,0.0003555101322007677,-0.0021003852566591976,-2.0274657590554305e-05,-0.02556942493210853,-0.7088633803834987,0.24548296851360363,0.0661766560515748,3.6604413754377942
2.3100606174614927e-05,-0.0001791636336152039,-8.50853221002855e-06,-0.0034992622420818072,-0.00250500027039361,-0.03425308833384133,-0.004893852082214059,1.1701405291450837,0.0003512671346391651,-0.0021214987808013054,-2.1050139024845127e-05,-0.025049086936784933,-0.7082351400947235,0.31412014438760866,0.06894115635395713,3.7281959509382028
2.2725239723183826e-05,-0.00018768322571555094,-8.181333452875794e-06,-0.0033659757996152987,-0.0025835350100992974,-0.039267369852843716,-0.004893996905752981,1.2652964061257261,0.00034698073261649377,-0.0021432010113356663,-2.137358477406889e-05,-0.024519219559900086,-0.707465439352391,0.38485037116627346,0.07070487546703105,3.7807475224131384
2.2333741581221945e-05,-0.0001957490709809397,-7.700910790299406e-06,-0.003231265364661843,-0.002671941614614188,-0.044203302257445336,-0.004784621099128264,1.3640710508224565,0.00034265075984167776,-0.002164986387407999,-2.1221615036419884e-05,-0.023982068204962542,-0.7065518911326922,0.45677410984938377,0.07163180507684322,3.8202029929082126
2.1927263151048856e-05,-0.0002032392150865446,-7.11435525519508e-06,-0.0030965048193342857,-0.0027698716979846563,-0.048965041685234224,-0.004588683807220613,1.4646320182459247,0.00033827804855938374,-0.002186355641147003,-2.060855694606292e-05,-0.023440144047145603,-0.7054936118171912,0.5291396577505315,0.07187067446541118,3.8484186585526663
2.1507117728933104e-05,-0.00021007271105787543,-6.461000974167908e-06,-0.0029627781245898177,-0.002876827301687277,-0.05347780185131024,-0.004326796639135391,1.5654371346739249,0.00033386435721764377,-0.0022068456708699974,-1.957483647642964e-05,-0.022896026650210927,-0.7042909461291372,0.6013328440269907,0.07155806762459499,3.8671642683364924
2.107470217713505e-05,-0.00021620777589902732,-5.773553471465545e-06,-0.002830914568388753,-0.002992203746034921,-0.05768822217382203,-0.004017408486708986,1.6652152182758306,0.00032941224403877254,-0.0022260565894356107,-1.817726874759739e-05,-0.022352207367421703,-0.7029451744887183,0.6728858202094525,0.07081921102227456,3.878401614059415
2.0631447033004875e-05,-0.00022162757206508753,-5.0790652924384176e-06,-0.002701486004138722,-0.0031153201647641875,-0.06155820936463334,-0.0036770161293416467,1.7629844564178418,0.00032492494300368906,-0.0022436505175417306,-1.6481670652862502e-05,-0.021810941456692653,-0.7014583057582298,0.7434343652442388,0.069768994887698,3.8835142324661764
2.0178767405987188e-05,-0.00022633981350884372,-4.399510670497056e-06,-0.002574896402147366,-0.0032454508868978616,-0.06506536106683708,-0.003320230351675245,1.8579691898987707,0.0003204062188767981,-0.0022593620634454767,-1.455703501944297e-05,-0.021274241712642628,-0.6998328549385189,0.8127254098554492,0.06851191619618519,3.884040057332446
1.9718020675994964e-05,-0.00023037336499611306,-3.751138130313528e-06,-0.002451374786617776,-0.0033818546559345616,-0.06820188451835006,-0.0029592205798439977,1.9496156820718844,0.0003158602179983727,-0.002273000439212682,-1.2469480987288171e-05,-0.02074381157043605,-0.6980716295020232,0.8806127182478444,0.06713716391401486,3.8814943395262533
1.9250468928077074e-05,-0.00023377587395894458,-3.1438719093848953e-06,-0.0023309905801864707,-0.0035238026280489665,-0.0709739860572024,-0.0026031490847439817,2.037584664555615,0.0003112913193291384,-0.002284449334617172,-1.0277142015177772e-05,-0.02022101960375976,-0.6961775176917905,0.9470559051163373,0.06571349312704516,3.8774152574086993
1.8777285341065273e-05,-0.00023659179350590099,-2.5828199065138408e-06,-0.002213662667938542,-0.0036705838255301653,-0.07339059874059939,-0.002258704557219396,2.1217505792726925,0.00030670404997470296,-0.0022936346772176965,-8.028993092947054e-06,-0.01970688525981959,-0.6941534467375025,1.0120354771439926,0.0642926100210619,3.872112039022344
1.829955011636764e-05,-0.00023886761234881678,-2.0708482388673283e-06,-0.0020993145137138897,-0.003821515023219308,-0.0754655988445714,-0.0019312889413456505,2.2020341287680525,0.00030210300047547433,-0.0023005247496143124,-5.766714423959809e-06,-0.019202231611401926,-0.6920023047346757,1.0755710014133488,0.06291784407288581,3.866170597864077
1.78182392632347e-05,-0.00024065542656646877,-1.609597198349479e-06,-0.0019878367368708454,-0.00397595417305572,-0.07721957491820584,-0.0016254927348082482,2.2784384896344148,0.0002974927399868676,-0.002305130244303391,-3.5257524739252828e-06,-0.018707676299456886,-0.6897268322595786,1.1377362375485316,0.06162755146586674,3.8604129995368814
1.7334221122444e-05,-0.00024200907039535006,-1.1990697606059154e-06,-0.001879059866668241,-0.004133309740455413,-0.07867778369984622,-0.0013448449129830065,2.35107987568981,0.00029287774905011857,-0.0023074954683744964,-1.3348064170773995e-06,-0.01822362277716348,-0.687329542659001,1.198644800288808,0.06045295137560658,3.855464392646422
1.6848261563770736e-05,-0.00024297977933663187,-8.377474879155236e-07,-0.0017727807317303832,-0.004293044964994442,-0.07986761226951475,-0.0010918313094566007,2.420159677634328,0.0002882623728048487,-0.002307688122634929,7.841124272790594e-07,-0.017750297563156613,-0.6848126796850565,1.258431486972221,0.059417999593151416,3.8516842547564343
1.6361032985604487e-05,-0.00024361428908312402,-5.23440674261711e-07,-0.0016687938573782491,-0.004454679256131618,-0.08081714556858799,-0.0008683231886189788,2.4859276735410702,0.0002836507896100955,-0.002305791597376601,2.8144817584543815e-06,-0.017287796667291314,-0.6821781963635357,1.317241660760442,0.05854248103384396,3.8492799032179676
1.5873114782888345e-05,-0.00024395910135807094,-2.536480103486268e-07,-0.0015669065735672396,-0.004617793696385276,-0.08155722012682882,-0.0006757688945485466,2.548660960368343,0.000279046979848426,-0.002301904880834753,4.744303655682082e-06,-0.016836120974140466,-0.6794277014632106,1.3752474501625391,0.057843366787434736,3.8486985201535404
1.538499769660655e-05,-0.00024405854314089753,-2.543640057603631e-08,-0.0014669092470967048,-0.004782034155479462,-0.08212022954709293,-0.000515139102047972,2.608696410817978,0.00027445470551045164,-0.002296137168987168,6.565757763225908e-06,-0.016395173580663648,-0.6765624232226272,1.4326391202917415,0.05733428833587351,3.850266038794634
1.4897090939615877e-05,-0.00024395337849533687,1.638521263773316e-07,-0.0013685897373557575,-0.00494711240158508,-0.0825391230528094,-0.00038738048896652666,2.6664136898502133,0.00026987749940481103,-0.0022886030528203086,8.274286339378161e-06,-0.015964784706088246,-0.6735831878454311,1.4896176885980323,0.057028920824033325,3.8542030416970547
1.4409736578929286e-05,-0.00024367718034329515,3.153540270924314e-07,-0.001271744538431017,-0.005112802254217739,-0.08284492631632931,-0.0002942498352637435,2.72222056626763,0.0002653186677846996,-0.00227941581005571,9.86692227781757e-06,-0.015544734676397585,-0.6704904360399455,1.5463759027428325,0.056947413347718245,3.860452556405826
1.3923209044583839e-05,-0.00024326376717272397,4.2930317881299297e-07,-0.0011762070534106382,-0.005278943876330393,-0.08307081105632695,-0.00023806441137415313,2.7765145710102583,0.0002607812871824085,-0.0022686903011455493,1.1341768810820777e-05,-0.01513478772820008,-0.6672841774091126,1.6031293154164745,0.057114650404286094,3.869407324140694
1.3437687754407021e-05,-0.00024276064508840927,5.076993709336974e-07,-0.0010817954386637663,-0.005445465525548407,-0.08326082460900694,-0.00022010177319575774,2.8297453287440675,0.0002562681831457834,-0.0022565520183125574,1.269953048476085e-05,-0.014734677212515474,-0.6639638093875831,1.6601840107647334,0.05754804427978588,3.8824506434100776
